-----BEGIN PGP MESSAGE-----

jA0ECQMKM+6XZ8hO2/H/0uoBnBLCadhLozKbEjGOtfCSCMglycV0AW0Xl5Fayhy5
t6JnHXcA58rO6bqeDKhTOZbMfqQ9SqNoDn0lracKIOAQwWMfRQBxurVxz2lukhfp
c9O9vd2ctfMxp+BBltASSZNBKVcv7APIwniqLTNMu7z8yu5LuzOSzO/6Xz48Fpdy
OFNuTpuKkYZ08wRVdi6TZKrRBf0KDyrjBevG7FILFB9SkM2hVFYfrEJ1wyPgZ+yl
KOdskjqSIS0TqdNQfCa0Xzn0Yr0KDNEzSnINh9PvnfKaRKS7tfWH+m3e7U3L03tu
wiSLtgbUJvR02TDYN0EGrxhb9aWS868yTOuc5togFTrWytn4HaRxQMPVFX/ojPyV
rvmiXjG6Yl6E11VRHOgouV0Y6VGsSKSY1cfxYDhTVqHdwzid1HBfsIEqgappyzRc
jegkN5ZDoKfXDO4qUinALlPruC1gAE0M6HsGCh23PFCPPh8EApTtelmvFTASMQdX
Gem8LXmjEWdz+GUt2BITye+infrJWxMfGga7uDW+Rx+I9PGnSXGnKrg3cgagogGj
a3eS/cdzghqSsifwrZoMOGs6QqX7rc8l64QQFCqGEKmkpqET9hDP4z5Nixi5vySQ
vLAuT34EdKeFZi2vmS2OWwnVgTNbw8U4szvAL5jUm2wvHylUao5DeqwJbdtwKsv5
lEJfkRwWd/LCrH4LRYEmXSxt2Q+VFi+/AAj5coImFVqgD1T5x2iMb1nZN0jKHWij
R3THlAcaByNGTsJs7GaN390xdv3zbk5zQ0AXMsR77s1k/gZ0o35MrGoeYUff37u2
H1o6TNkKrhNxoNDkmAhpqDwpHaRWVi+cgNji07wKei6RDIGVOsZ5oXPM9e0nECw9
DQW6lcCbpEA38OefgDSI7er9IHoe/jQIvGnf9DpvrmHa3m07beoH2jjUBtcmY5fM
DQbPf8uyVlHJ9N/fldwp+Roa2gsFpxgUu3FmubhQwYBn54xMesAVnqi7joKS3eFD
iv1AU2tPuEZn/yoS5GIQq7M9mnUkLvTZBLhmvU7Ztk/la3Rga4JaXRJPKxap35BE
F6uM/cM3PTDh2MiIEs5YvL94d06NHPYbiQka1i6nx+VUhUR+qQmVyFXVXovcTYZI
LduJ1o/Z/+GYpSpMSwOrkQ1/MlYi0sgKahTlKO+W79Uq7ZvmUPQDPy386Ubnc37E
JOd4E5grYhrWTjhOnbguKEKnEJlb9hoId7PEairraqkaa/D3oaep8kl00PHVezAR
PZoZPa4LUdGSMKdMeZvTJTQoG8MAH2CEYjVNhJ23LPKrf49m7V2v4JeXo0BzQNp/
qm3cwotYReABZMRbZOHellsy/tRYEcEa0+bGQk6rEJpE6kR3HzAaAVhSgnAk53kG
E3j2NRf+Z6YABO1RyKiRqB6uOY7rYZbPWbWessw6OwF8G9Cte0v5vC1nqexmUzqU
oGvfh2R4XTY/WKNKKHA/X/Rdvn7Lofkftb0D0hLTTbNsc3MIYEWY6W2tpUf5919Z
ImaAnkzEbupwvHcBQ0G5ZvCBLn6qr8Et5MAHtCy6OU3GeiEYRELmJx+/sSsw9Z6s
gqUL5G2C2sxwcOtMRQY5TkQwCLjgiEI+T/JA3y5CCXGEsEdi4Rdmwq5Y6kqE0ssO
kGRcRiAa4gLMRiegwfmfmMwMwc+1c172Bc/AmWkzOzTV5Z9eKMdfmpsgNH6QLmkA
ykveWp5kxw3USJ76Ep6/SDTbR+qUMUcJJdyJqw4MLuehB8IMyD21JuYAmUHIgV6D
vu1QDVD7H9MhicPi8yy9oM3r5+K5CO5423avN0HolZfbzRlU13KD4BQdmmbSsrQt
Y3vdrpG0zI0QbbbvgkpqiHFjrB9JhDZ/NGaVnOuAnLZB/ukr7zAf9hNWW6b7xe1J
lXee96UPFobY76cccqsQjQEnFHG593e3gDv8tSN0wttYUWGQzuHQb9CxwzHzbeyM
3zChXD5pGJ6th3MtxXzGdPAhpgFhZwdYUo0VCbL5PlUzUUb/etubumufkJDrMt63
TnIMhis4rxRY5pz1A84fbhFX0HXnOIIsrfdp900oczWKrx9sWXusMq6yyFpTXdIB
M2ao2HX5PqlNJPwSpkm5Vjr5BPiVoGWdkat44MwY1+eEW0xLTSfEcHNPC9o3GVj4
xAHGpdra57LpksfTcFoy6pn19qlhvBy5WYY6gKZYSJ4o35kcSpqS4+AiG8FD6sTd
ChELV5mS4RNo1H4jA511XX7dSI8eZu9Qxrx6KZDK6YVbh0rJo19Zbf75zwUh3adZ
VLgbOttkcKzX6SNJ9QPaZZ+VSPnshFoRQfnilDYpuritG9GVwCz9KTKRMGlQgBNY
oHLJJoRxyVGz8ETxFtLQsG+P8x3SL/QgBfcG3l0lR/evug/jvqx0BAs6uPWc2kOW
1Xl84Vuf/IOu4Rd/tD3ZQbluE95tdLTe3D0jlZ69OM1hRF9iK3c1Ss90wCtmm2fP
xTRNa86CBXOIB8lOFzY4IjmEBIwJeQdHzDTEsxT2r2sF7k11tPmpPfzaKYDjmcWR
tt7BRyYN19EnFJ33yP8RHUl6+BNdFJmp4JHWD0/7qvFdRNZxapaKzgvY9g3PsXoy
ZLlQpwEdVwNy2yM6LxUTcPZJ/RA/kVYvD7yC0A8q0EDriCJ/YYmVWxxe2vZY2b3j
oka1wF+erHnGD3CyzSehKxgQRJkKf9XWCDksetqtRV0JucEJzR1O6jty/8ISaZ0Q
ojnsxg3O3xvHNLDlvGNDurRqPBtOLbyOxnh/d0bke3IButOe0oH8DL1RBT+dqRk/
wXemcKa6yOLVenvNg2bpIDOVPDYmod5OaP7EA56g4dlUfCnZDjgW+Opm/CZXtKCk
Rt5NsQeiIMCd7qmY8q0pc13HlmPBmvP5SVXge8MoclQw9dTkOFttTrEYPa4Tr84A
+82WrXERq8N9ZRQkiIQV4oqBDqDFXUUhyJYTl127y7TVkW3w9axBx33p6fNsC+sO
LFU/J/SvsO8TfIRZNWsmHIS0xrdhuKuRQpTt4v4HYgzC4JqbqsdB1EDgRF+D8gbI
b+cFhkvxBy3pwEI3vtBzhgQCH0EvokWhzRpt/VIYkf0+6zhsFoRYN7H6u2jXkNG8
W9FdTCNyWctAi7qsR3EeV9U+n9qKr21sQjgbGmL51rDYmGJRt+GkJtaX8AfkCCUg
+mUKSk/81NH8fKJA3pzPS26krAjJyd1VCXMpksobXr/E9RCgrIKpGnDOHVOfmH1z
PK3e3Ho4iPKe7Gyo6i3QS0vZ2Y7Vtc4pymi/yS0yGz0XMlYULLdCMtDf2Tr4DqSZ
lHhxH5+2XCd7B7pOmvZWOKFcC9iBIMQFYux4kXHlDJEvzxTGIPVkD4cpl6qxHnWF
iHqLo6bNVq0H2P4VGuN8RKnq77nZ3B2eN7AU6dcsy8J2eKNM+cFnNwMi+LS05sB/
JbqFQYoVE3JUpn8aIVw8C3h4quUD71Y9AG2+7oPWiUsk1Io49YXfsSCb3vK6VYF7
1fFLT5gfP7vvtK1f9hqPNlKJ17kJCYeUwDcxA/RqkfgxIuaxp6do3e3O4XHxBDCi
aahEv0NLWQFRBsLkfaTp5qoah0gCqYFzKRF3Y2B1by/++ZXK2IFLqGxu9fwjfZQ1
OQVYESUPIUrPaKWMtlV5VRWJzURflGirsYaliG4mTuyKqXMQHE5ghe4ifn3bTQb6
/cWIiIzGRtoAybLRIlSIHHBml/j64ai2H2TOvY4aalYUeq8YP6rId3Xwo3CQon7j
bVqVpyr+JnMCFXiEIrSrrHmBGGikTek2OOSKL0QIdOxzTMMOpHaVgHlTZimQgxgI
5n2eL51sViUZDJJTMrZ5EDjTUE5/Zv9bHPkHl2fZxJmdwnzD1KdeXB6d+wYkF/kZ
j8AYa51GhpK91eq98zn+ATv3FnvUYvzIjhzcqpuYnDilHVNg7wQ+fQFDmdCF28aT
kKI82318JoKP7a4xoJ7Tlu1T/LCWCR146Cqy176O9uliqGnlguolgsm+sVN/xuwB
MQ8GqmT7pQlWjgryi1z0kk8SXLh1iwF1Mrux4BOk04+22fAB/d0KWy9AVDVV8KF1
x54yofsSCpd7YVljo0rkdv7Ie9kwXRArpc2i/Yd56c96t8YRuH61Z7DohQWNYs8O
9QVyE0SVBDJ+/ebFwoW2Y2FokX2ytaNRs2/kT2N7gJJPPxs5XBaj+eGDmst6Tp3s
P5owaa1D0kOf60eRc6hRIlFY/Wel7WiSyRkUHPeiblZKxgyB4usYOqkGGluQlzo5
CtKheruB2Rmqu07B5mmziCuDpu6xHkyYR6yLD/subvJg84T0agj2wdteNrMsdvQP
4W1B6HZmKMXngeGN0ajj5pKtAGjs/teF8wc+8LUcIsOI/4pGoAKoU4mtJNkP+/2e
Rz0DC3kKZ6pBgj7HO1ZgB6M0gWdI9JML6DW6dSTFwsa59hxlaMep94zoWnB3Z6RL
EBloAw1i1h3bzQL/nN9DRkaeSHm5lUHlC58JIjD5XCbVC9asm+aoOUurTUcBVD9U
uXS6KkfppPnb3dVJwLblkGU6Qdz+ivhyAwYJHL/sqSWNbbYZTDy8DOapdTPXenRW
T0ztByIUP4QpLmH06AN6A33FJhxw9QSpJQSA4GSWW+FVD6J3WSEO5hAsrCO3vx3V
zumR+ryXU9mqeWb5lZEPTRaCaiAlQujk/D4Ascds7LHJhJAij3Q+DI7QolCfNjXK
dM1lUWDua/ckkxDnuPMpS2dU69wuJ/QRtII8Eo9XYPnvTh8tQkRQ5nH9Vs553NQ2
1p5IzBJZMbOo556FBgZoKMmWRHCxJgN6q0Fs4oFjuTw1DzLQuCvsvlb3iXcZHp61
VKnUSjm3qrx9zu1VFucX8rNUzuAmb3pJh/mJIgYoBQGNu2XKCqm1Gd9YH0a9S9kv
WGew7Fb9sqkTBIWfuL+D/w0OvWxkpUXd2A6Pls/qzssk2xPdqKcSRlwSdnYnBmCC
P1pZk13HMvL07+VHtXU8qPO8l2pozOzhe0R6qEyVVdXyCjCqTAk+Yzz3PdJExm5S
0bvcqZ+T6/cbWk99Q7hfXFsaYJDlLQsH/fET+4cbHWpam4bTAWk1nSxqyC4VYd7n
Dssw1qvKZZ4tQVFQpXTrYmnqa7gRbXxPjLw4JX+c5msUeKra4jb5/kfxynNrpW6F
lyIrQ1FRxvCXXKxoo3P//LQiGdJ8RUDte3hwGinuJOjoRz1nBOAuxTmUIp82bZxb
xukx7DPjpA5ZlVCrUJh2n4sias3Pz8AdFCh0X89I2un0JKqRx0zpcEBrfP5IakcW
++b6JO/28oOfhgN46sG5IVqz8T8lebjBZLEykuPJT0Frk8FareExRj4HmkWm86E7
Vg+jYFYRuYBMbtnDKWADPg/Re50SCfiS+z9HH0bi+6aLbqLeOa6FODknWerQBtSW
3IGYgwxSASSd6SSI3C7AE4sz0iPvYNYzwhjIqgDmbyUBjwCp7ndIs3IM61jZUw3F
FxcsAtX+I9oMLwypFONiaOK7LdUucf2L1+rhuczupcBo+oAW8cUQ2ty14cOzTtKa
WV5VgoDfsSpbbKHrtaNyw/EzV33DOqMRd9lCDVN5Rsx5DozQeip4KVYRy+gs59Ue
IXEG9AC4GwHjvvHyyg1xQQB/Y6fvaeKp5qpfAtvude8tkp71MMdPBZNNLKeMCtZ+
++Sa7y6F2jNkqBq+AxsJJF8cNh8WixnR2QKpmvoGH2PVl/6wjNuTVBZj+JqN2lSw
Wxw5WVpdEI90m6GFNTvGoKBJcOPucySdV75ALgQxVmQkGZZHYMYgOFCjlyidWr5U
m6BpmpIQKskTGP6CoWY1EN2wBR7OtNlSNb57ZQUExoCO2oLEO0TwaT70u0yb6qB7
GqL4gHX+4bTUEsqCQtAAGEXhj+HEj9ookRTEWwm3hi5BV8yX5fER7qgDri4gyb1k
DOXCh+xsPoKK1EFxH1eyaF2YNkzVpuHqtQcfMJ1fxDobOUZ5xCr06yKry+Nf50qQ
6Siu+Q3F0Z5BwjoDSiz6opwsskr9a7+DXTfdz68e8UBer+KCQ7X8BH626EZaOQOX
Z5JUzl1vpwhM4oKLcJ5lqh/dQoVh4z+ZVM2xedoYR2PhiIFwYFEB+W/QNnW68Bks
7W1aDbMq3avx1F9Krp22/+3O+y08gL4Zjg9Hx+5W5gGV9Kyxf54c9tI148tm4Kq0
Tl4xZhlodPiPikxv10XJCckmStIFAFXN7glrepkglyUI/jQWIzwBoEqVv/lajS1S
Feutcy70ywYKjy1namtjnwRc8fKHZ7ti9CQk49WJOtZ+RZiqf6K+hGF5qitV7eWE
NSBggHnfSW/UqWaTu1WaXudT6DXSbLZvhXujeTWqm6++next8PmT6zGXmvvIDrvk
on9VRmkX0KrE/16GHT2oQutoFhzkC+PNdV4SRTshqGZfTdMjRHc7wFNTDa26x7vQ
eRKEkZXQKP247UPkBDgZnCOY/mZFoikYbfSCYnwYaIy82/kheRCrcnvPtGYIj0wR
IiCIqBrpr4AhDHZeAeHHSgT2AiWoyQ3nSlQAhMpl4BihJcOtA2Uu/V0apJso5zuT
orr5Nyy0ml63/MN4aO9oW3dCoekf1IM/e/jXbzvAAvctrtqglavEq+P1RuI8s6Bl
ikeY1HS/j7A/F9fZftWPmeF2E0NcFuykqwMmwUelikeeT3sD49LSK+gUJMYXz9ZO
oiBriqQZ8L5a4yj6OC1nuLk2b4/4M7A6nhyTCxQ+mNst/GVUMbFtsZAzj+YvOz2y
oBirP7a86ipAm+9+lGuvmAJpbQ6WGmCcbozS0l/LmUkrtyecOGM2gk7NPhe+A6XN
LShesaUWBXJArSeVSreMnGMM+piMuXNeRFmlM+YSf8yALQqv9xxOh+XYUG4AiHL7
BVj6sghPKiFrxzJtwJPHo8PxoOfZ/rtKwDWIa1LGKp3EyQuT9Eq7AxeqhTz4tobp
2Frl0InkoQNDh7ahqy3TrTQZAxuruuMhkHfJ6iz8dd9Dt2tYUL3ony4WDVAfMu4W
J0zQI/JbmUBaUZcnu2eChhfMqn8tUtlvY2q2TYXHtJ3J6wple6HHHd7h30qxnYf8
eBSvUKEjuKSzsDRCED82yKEpHdfj3ao2RzPPVrHHpp3StHYpJSbWPZmotQddBWaO
7ub8GzdpboaAkYrq3Spcf0arOTDyrcsB/ofuN8SyC6P2fI2Bvtn+poJM7oSZY//+
HOOhMcu7tL2J9nkcLLtXggvSUtsqJavfpAHmfslGIWp5CrNKoMEaSzeL7Cl03icv
/uW5F9JgkWy6Hko3ArWrBpo1GynMtTponp+u724XgcC4bG/2rVfmDxTFgNSWY2+n
swQMWSY3N5WgzAoDksygW7Jyqh/GYjGe4bnb+emx2mCbWYbWJ6u9HPjOM7raZ7kM
JRSHvgjAry1KTCFi71PFwd50+HamVbSze8zmCnwS1S41cB8X4T23qyWX9KjbhlW7
/2k2j0oagfJotwS0SyDR2MdH83mXM4LUNPA3iHF1Ngw5Zb2P+PCjzoN9y49uR+Bm
d+DRYHxcBFoD2/DWN+kAtXgyFKAUnQUSBi0LRLUTFGSGX4Ia+0pYC7hRHKmb/SFo
rRkgKnFbrAHmLupgIEEIC7fOsKVWZAng9gwOh2ZLLh361Xhco5X+4+4xz4eSVerV
PyDN+xxS4y5QDYxPEAk+ImohYoxCdaOf63kjfh6tSDfsrg1VAMN6aYgRWKvjS84r
eG3n4lJbXiML7vAtBeK1Cht4K0zgSwV0FF9gRBYfWBzjT5BCOcg+fcaS+/VIiPLX
CpkCUN51abK1JZ9AP+XUU6ur4N2esIcQdXuj5frUToXxzO/lHVmtFRQfNx2k1qht
xvDWH8JNqs2Ri5sx/AzrD2oTMOfeWldd7a2LoHaEXfAVSE9+wjN/Yt/5ol+1YyzM
44n4Se74geylChtEldIYyFCKLVAddeymLHK5eeQ99JiJFHS6zOxbByWoCcrBTu1M
xczCUn1M5B0oVQPDfGuqDJ2TnB4RtqkosJwv+k96+7aaCdmeDYf7NtRyT5S46ruf
BrQRsxaLOYhabzN/EqyBW+Kt60cATnKR/jmNsoLW6dVm00xuJHnVlODkUq7SyImY
/U9uGhR8iiixEqSmG5a7/KA/YORA4DDoC8ilz//r4z1Cw5mx/y7qXs9273QkOfro
JFJibXrb4Y8D86Vz6R7MmSc6XOnhaIH7MZWRMl5uxD1K4fyt4G4yfdCCas191z+E
/dfCOYrvBm0PS9nM5hRdGjm7BRkgbnTiPc8RnTSgM5isKRu/QWq1q+5T3K56hNWS
b9fFveYqKmQmpzkY0fEYmmtyfsHa57YYydnujq0zl2wGCgQscb2kHSH3fjmt5Q7C
BpqCq72XOgCNzZs979X3b1EekiJG7vF1oaLWqtX1YhvYJeUxRCYXDlqnUdEIe4M/
qH5J91LgTUr9KV7yKewFd16bQ2vRTWgzsz6RkzlueUGtgyeOBCl2cONfNGaq1PRh
gWUmtv+D5qQbHSaaDfWu9HTFR7sXFMf+iyO+hwv5T1Ztfa93YbYQAdyS3iAep/vV
q4JWCycNzcOjxLHBBD5nBg/EiJV8fRE0mtThtY1dlSTxH8ie9nfLvAn5QnHOW8uW
S/Rgqg6XwUUOWTJLKKzrpPifyqx8ruhiM+ZOz8k3rtDI7arEvcXRhnCi3aVobE6F
mSci6Ox6yKJPN482nOof0/GvkCoGfneFZaVBKy00fAksKvu2SNDUpVUb3jWRIWEF
LUsFP34bxeZ8jSjAIXslaalKj51VffUiNw4Gl43mH+XYyNDaIz5Vk1tIJ5cBPUAW
E/XNYStaeRKvqMHh5TM67ahxx2xK8Xya/rfu8kVUt0ydmLrw5fQwWnuUEpqaiXK7
gLlfh8E7rIqza6DQG3XhUXltH4fcAzAEdGkSPiH6JStbM6RjesmyeXY14jBWm7Dx
4qeQWo0lYxXG3V+7e/fXn3alZaqobata0/flfWaRY4xql6bGLAFtcjrJxxy/Rqzy
bUm38/A3C39bpwbRR+Mx2UTNsu1qbQsprSsVl3/C1gfnVlZL8qnihvI14rrf7L7f
o2nt2U+07xPh7MA0rofBsBqImZu+9zB9RbwbdPnhoRjxcUhRP9WGUUefEeZXINEt
8zqPs33NvXlCTClQv5Am5m5G3tITPIoyj3cvk4txlwOqMHdOi3/sZ6MtdP0M69LK
rP5O6/dE/yOgSpjlueLc50tv0WW1WWZuu02ZgcefVEelbPj06NXUradtxvfdTZOB
dmFzUd6aMNSAY6KXSVo634xPpl7Jcj7XmM2akKXUR8+x29dmuFDSQbVrGCwEgQZy
T0UN9fDKcsetEglN3mRvzgijrIuLg/QxgRsNt/15HFalKRjBZkAUTGgb7fce4Oug
eT9Ov6AYvVIjHeSJs4Bwi8IW4nJjC2FLOg71RebFR4eZWnXgtrh8u2Cwbfs8zYXH
h4f/Rxlr+QB1GnjuBi/9oiAXSwmgz37852Uc1qlzT8Yi5gnJV8QiCbSjd8K2kYe2
y+d655OkuhBl/Um4xWA5qVLzkGoXGFiDdI3FBl/u503x
=OmR7
-----END PGP MESSAGE-----
