-----BEGIN PGP MESSAGE-----

jA0ECQMKW8jt6vYCxyz/0uoBNMIyAvYVW6mHGhCzzjXZTn/XftkUwUsMWOCcv5WB
8GrHyPQKWRqTBTcQk/OVaZS8LeWaV1IQhkCYF8nWYIKzn8/QHPH7uwHJZDgUiMfU
CDN39ztBtR7GJlM+LrwBTATZtoG3RLlUHHoe4l5eFBBjavBWDa+ljmBNciiGYsNp
TtxwwnA5KGpPDOBwy/PMmfbZSR2dcYR6YxqirgXJjIQdO8Z9aaR9WLXI0AH3Rvfd
s8t3YunSFeDFwIsYMtzWbXNVdFi41asiDEIZhcilkFqe0qIi7n6Ev7GY0js5lLwT
58bR8n+370vLEEhzBKcQS3sipznEvrqUXDI6DRp8tuZ0TWr4tm/TIQ9LmsHfKsf0
P+/sNSx4Jg6Q94e0OMawGadaql9RYELhMxtB8lRylmpC4FyZrwIOAkqXPmgD/ey1
7NXxIlb92wQls7ImU7C/OdQTkYFCMdV9+5va/mFEg7LJ6JtNIdQ7MDcpYQjO5MTq
vPuAMQhiq+5UjzX5nq/JXdNiRMwy7A/zu56smybIiz9li1qeUnZHv7t2WbaMbkwi
KP4z+1kFECduPfqgFlj3y9kMBKyXT5GNYcY4MtXZa4Wx5/PGrc7ZCJ25getw5t0J
3GX4Cv9oIedreN9fvLR5MjrHEyHfPpKlucGn5dmTyJLGYXgQFHY/Hg45no5EnXWX
L4NItISHyeWUvTNPpeXiZGClPM6HVCiHu1jPJJ540MwQqtMmhHwjBe+gRWdHXh90
c5bo+2tt+GLAivvZUnPbAj+iqIcGxKzV+A6/ojG90siUFcp9tddvufezNrS+vZxJ
uWt3nI+G8UMnLYeoM8FWB7qe5aIKRhrpDaTeLDr5UXG8NFWK5F92+6s6KC8SXCYA
/HTsXAoSbKMfzf3rNpv7sJGPG3nzChsYLZeSHUCL2iRJ7wrtwLBUcrKVN4cjIaf4
QmXH1tny6uo1WSl5x05vgywoB5loFRShfCd/QC2vYcDv2m3ZMRgkI+udevVsYvq0
KpR9Fka9OzrAm27xrccZZV7Sc1q8a2hlVHruv1jg9k9m1HbdeO5WYhTxnzq+dDiQ
l5OkkZJ3L6ozsEHOCBeQJo9elEWgdX0drYSY4S8OorGMv8bdFdupitVRs0tnHQK3
cdmPCLKF6arfrkTn+HqdQxIUTkMPt8icbDKkDehNPhkp3dh2gxVC3ZgtiezJGL3B
GNtwFvMca72PA7taKge2q6B/M23FCLtr7Fk5yZLnYpUczz/kdP1mty9r8GeT0Q+w
M118uP69D3YH0bh786QCcC+bUHlPhFMMmTV5slB5Slvo2rHZtBhe5614cuinA8rC
Lmo0a1BSJaB2CZXSCLxpYvFjY3uCdlx5yrNOKt89PrSq6W2TPW8lnMPi47qOSDsG
8zqtUOM33p2HNRUsZt/Pzr15YsvRXay8nQKtR5qV/AzZfu634tG2x3WL5jNf1sgh
WlwtgRkdjtLEOljpPToMbN+MroiIpshNkEgCMNYJWDkQRqY1rhs6uvMuUFgt8Ib+
lUPGPyikvOHBWAZqx1eAsltpHqOhc7fidywkEdX4VkVZL9w8mf5GRqeUDTFDqzi9
gomwRqVmI2C4o3JchmxJLHtYLnwMnCVs6ff1R8iC7m2y8UENpZWVB6i/r+ojdhSU
VAiW4L+AH5dI+u4QtG6t64re3EwuYBasFU1tUWUkcfSDXwKBNXMAnNaGdX/Vnq+X
hkckfE362CdAUeVpQP/zrx1ICaZ78HzoMZWRQJadWzToeloOGZodrENSQweHyXhi
gpC9Pi6J2mwpa5DCLAx3vU9MXFu4CGa0De8XE5Y7rLPfGZpQdWtHn70D2ZVyTAxA
n4xNQGB4VFFWfMO/4dQnMBebpO9SDL7dv2L4jATxdGLhO7owxKnkG3wgFccQglyQ
MYj7JT3yoXy/3C4a5HCpFwHt0myrvgKyl7Yv6Dk+nRvVrM0Eom2Xy2FefPXrPyHB
PbYSZMZofWUjIWGgMEvr+gE2cmRy/PmTyjWTcH+CWxGFhtybsiFQdp6uSFD3GrzQ
GmXIk7p9SA+s1sm2OZm1iydYKhQsM1nRFovQ5tLT78AG0C6nd1qpq1U7SE0ukMN6
fJtp/S8fG39E3jbP4g==
=Y5TS
-----END PGP MESSAGE-----
