-----BEGIN PGP MESSAGE-----

jA0ECQMKyDjJeb+Tr5T/0uoBNiX9Rmmzq8RuXdL9ZkSmqnOhYiMKbYuLbrac3zJw
ufOgW5ufz+RjZGFmL1ySHJu3jdn7GnNhq9vTkIaiNv6CTx1t4g1zDe894qup8IUo
yTUYjt/EnfORPAn2Gzk/4np9hVMYkzLsMDpCKkSzvXkcPKCgAaAHZNM3s8L1wlx1
m9CQXnM03qvteDjgi+RBTvdjV/e0wUSecdLflFREe7BoU1rNCylBpCnpQIrbRoJG
mG2CZ7oV1tu+KQNIbcXtu4bwCupyTdfk2yaskV/0VfBbWSy4y+DP97KQ5HrdG6TY
ZaWBL0xTYdcRpud6NQT0vPtmY+kd5IGAGy+7MbH93L32xJ9GN5+y0Sov78XXBHW0
gVXKrvehV+a1qdOVqvJb908xCnL/UIWE7hbfq2SOjOudbywgXRFUGnSN+6y1rqST
+MBQd0/UcYG0DjiKyGNi3ObKdkYD5O1w9u4mTEJY6/Ji9Xksu8t2DHaA6jzpvYP5
KXDA/wKwiILSEFpn7REL5rpbeUrwDLAJx0c/sNpkDyYmQMTkpIuwDBLnUZSwaPgW
e3S7Sl6EC36jrObuzcWeOMT61mvMRWQeT63OUzU5YU7GN2irn0cdFtGtjYuwVtf7
OocH47WVLi1tjYRcLfcGBBktOXoc1Hd7g8qyN3LObK5gqP5CH+t6Dxz5WUqoIByR
KOby5m6hPOZeSDOYrGCPk4L+JXvbK/4eeV8IEiTAIfI/r9WN5qjpzY7B0vtV5ZMk
ugk8US4whe+uqm2AE1Dzl3FKUNTr0BHhFWP81i5v/cs2rVJ4d2KiARd6b0vOV9Zt
oj7ew6fVK/9qhE8uG2UnGDh1gJqF+4cIHOxVQMbfJy3HwxaaEsPAeIA84b5fXZZV
FavIiSuaqtMqwium1jAApTG5dCD++4KVU86CQ2NP53CbVRACSoXjRDPpEy/ZGEuu
mr1vq2kO8rIp8U5ib+TsImtpCmXFZW9XjTQPa0laoR6TRCm5kTtpK3poJqIvo2L4
+rbmxAnrjjo2/tb6yoVfyUCAah3Ne+W22cDcrN+Fw9SwCBYf2MHlsFUQkYHcNtZh
9DPGHf66SSRguwZoNhh8703CHuC2JbJl4SaHv6I8zNS8JKKgtx3b30n4pIhHJX5l
Kgiac+jNPf30ikXk2uD52y8tcxO3dAwed5sbtVhDPJozeYCxp+4JD1m4XyijtENm
wELM+gA7C7R3jdw7ZLN1sCuERymFSp3k/fmn6pWQhrGFTqGZuQMdqjB2fIwUkY19
7G2ihB9m1RIyl2fIwEVrcqgM3+ZTDHxneLMxda2qlUEiYxFo0ywUupljuq8sw1wx
16n3AhrUHvEc5O9C1jPZZkwYG6Y3K9nc6Pma3YcyIJnM6gRdN4oHRU4I5LdQrq2J
kwjEytvaxRx30MIEQ7vOPMoEodR9h64G3LbiqjQCIctevII8mYerFaIsrNQd0kk8
fCivWnc5BNo4PKkRlS+RKDj6fB8IL3ByQ2AdxY4iup6kF115EEldwiT+5urv1U/r
WHuj7zq6AS0KjxIXSi0Qizmp7oxo+1yztT7N7QHisuj4L7+bAJtv75SpdRdv6n/R
oCSIuOBiwRYEnWFZ0JJIA3bfP53Tj8RmqQ4Xu2f+UPKba6E4bLNLjcGXYySXJvUT
r36w5mQ8orHOor1pbTL+l4kRMv4LA4sQVEZsISJzZbRFa1lM3feLNr4gqZTqGPvC
Z5cy61TxVXpzeOh75CQPOu1b6BGQPstazfzyocJ+Fosg1GUmQMsRkqJQZ3hH1GdT
B25TE5BbGS40+uldaw0bv26xlVot18QwIf+Hq8VYvStSjiLeTYfhgNo7eg+Ll22m
coHBupWAsIMUaCHughMuBtfwNtqeulSzZxFDuOYwteG9JmzWQR/btylXE8Knzg2d
/TZgqZ3/ZYcsqXTkJwDSva9wn/ztGZbpOHbEBaSC1bWVS54rur93x3DkbVpAIhoQ
xiR7uzFPvrmyC/dLlikNxgc2VXIGpjsqxWcWJJ/y6mBAGPc92F8AqhX5uy94t/Tk
v8N4Dwdn2kDS7J+gPgE3Ns6Wfx0T9mQ7qlfELh0OwQMs1BBQiIeEvvAIF8UwTaXc
dPF8WZ4KituAohIzEhY4exoucqSVyAUZR3AY7h1uxAVz0Hf5ZtE34KR3DyvTtxE5
sBxHLcaxogwIHrevkm6QsR3rpPLsrK5l9VN3ZJbuwpnHN4J84emEemCYJc+x3K6B
P+HIi2T+kkxbE0IMKAa/q9sGPKD99DGRcf3gcOFiokV5mShk+tKRCu3edKm1zOJK
LSs4PUez+e7hP/JA0An4fMiJ3gcFiC2sN2DuTFB9nuq7J1a8Qcb62PkBEo/jaVIW
JXoBxk7dXtzmg7D5oF+yOe7bzn1Rla4A8ks2Nyoi8WdyyCzg3ujTW63gHDITBEM7
hbvru9ZP0UUwpPokO03C6p+kJCxeS1b095zBxw4FFYeaeBNogi3MhNj+FGwRVUFx
q3kjO0Jv2oMABh82QWkMzdvVkTPRRDLcse5LoHz/pe+/5GjrHAwA8POEcr0Fo6J7
u7+EjyFgljfsj2/PHDwuSjDVoAp+eyLM2A6GGvAgLo71aDhXgmZ3kxdYp552R1jW
ZdTw8uh9s3kOeIo8UbiN4nvaxaR5kAkn55U9bQ/2/EWgoAOGTCMcnO5W1rV1nYVy
ykNYDZuAtQQe5XSDYWaLsRIEbNFKXSrYjSGGHrSoINqlYBi9QqMJ6qjzE/c/N3nH
qyzsNdVAmPjaGCYwzrjc0n+LZ/AhDEY8kMUFqmCINWFO3zF2eL5xyGIdBcOTVpM4
vh2+Z0YG0+kYq5aRDklY7gBsSKUgxW9wd9FAOYj5ojcblATMbSpe1S0IQBcWSqIT
ThRu8mlbLcW8QHgPhBO9cjxzoPjAQg7NMCwusQSS35PhmLLXu9MYErhbVuyhpi/F
R1873iOcy+E1yITVOWpYk16vw9XhO98vlxaQWsri8QfXQuVWxl2oDWqFhmPJPJ1V
sCBt/k7KXULg8I8/N4kAGOXQXZMrDK6ZFazZdjyeGb0A35CD9pF5zRyrSreVuR5s
66fDa7Dl28npx4t7rdWCmV0cZVG79pyphIEy9l3mFZEpGcSxrtajL4R54fLvADRb
wZVpvJst7zDsIIvj/HT0F3lt6a5MUB1/qlhfeJGG54MkNiejIyrxje6cL9ADNSSR
VkKwfswtbdaML9mSWYlE7vDu5SDGy4bZ5SVx0oTeCNNPHA/hxhcEhVQI5MTAc+zD
9T02zXpzbj6uFo/o1bRCqdXN8bCRy3X1XpMIIuVMqiT7nclKsyA77X8x0wdB8xxS
4nRRRRqFiY72JnG4bBRbRjUqeFQrwxSeuX5LxAfnUe/Ec+v8nxtZyoOye8mmPtRm
CYtIfsVQ2sL3jXLUAlosNWaf2tBvvh2KTZkkttzo58PurbU/TBofHt3K4LYV5Lkh
hNBTbAEJSmEEl5xqfTnygdL68PBNMlAkMGkcf9/So49wcShWLUsTUininAuDYz9F
KPtwES0p27jO13HRrIcg8tfQZ+JKd/ZLWxTRDFYTnKZ73KkiXDpM6OcA669mBI/b
mneO921OQ6khDMiv2rij9mcs0A9Vhz6wnz6OBXEEEIASnNpJmOk2A9NZ6D98dQzK
0+2xoEH8hQuxMKPb3ECT1WarbofpHuLGQmyzv1pOA9elRSJ1biATE0d9w5Zd+69F
XxrjW7QGEkwLmcEnUuFyVFQVZ06a7UmLZRvF9r3KqyjNsyIGYiEk5ipZQzTQzm0Z
Q3f9p6LtlahQZx6CFtpbb+vxqM/EIWjpAb5pBL8Bfco10oy/nSHhFGdIJlbcm/8m
90xIQSix/0JWS1FaO4hpS9yKf7MFKlrq2QBBs3vRgQ/vwoMHerD2xZXkYUFEwlYX
RrKYWqZ5xl/B+tYZQL4x/QtrRlzxCxQkWjEkdVPOEGar7d+c4QueEeUqvoD8S/db
ZoclQBCyz/DymVE+wvaR2T8T7MgRiJ+AqV8WhnWStZtGumjEuB8Q6EgNqefGzQeV
7U27oA6x4hWA7g5ZNkKP0ZIE5vA9TkZzvE0pY+5JxvHfdvo6YOPnbOcVG+Wki8Zs
fcp9uUDnqRirH6MzQu0dRQnNpkB89odAbH+wd8lG3Ekx9SFd7FP2f1OoeR/2Q3Ng
x2PjdiRfFSuphN94NTR3kVwMxeaVlEtWjEie0/EqLn/USxAZnxxWQOFH/JC72t/C
wgHhVaHXIpC3YeegfW1aNCgKdsC0gEv925p8UI73eMloovkKLG9VZMN8WKOrDCMW
1ijxaZEVS+ad0W4bA23ZCaZsJXCEFi/mtWLF8AXlVO1ffh0rNrhiXems6OtpFwJa
XwY3tPY/wfQrQNEEQfWHdCn6jH4mpQHmdeDRbE9EAG6Uh83GSroJZwQQshgH+HUw
AqIsTjSO59JwJLfUq2oq3nylkVBPGZFewHEXyj/P9t/4zDB3878hIyTkQQYLuxk7
QwNFs1QGPsE3Sa9e4I9Vz42/i/LSIAZatczc/0hRw1JcLj6uoMvP2/3sjxd25C2d
e/SjPePhBIZpc/RUjsMkEcJLFTjnRL5GC3VmkPXfvIPBcY/KjfRFKkPymwHEeeOA
CHEU18+OBbCLnjeVkFlMwr7yWDrHK+OBgwinFV6DT+T2SBO1fKMey+UTeaHSG2rX
FO3SateL4dlQ/vTHatuwFdYHhFYuNzV6KOZ+op9QgStB2r6mfj14NjjMoW9W69q8
Vd3UUSKhTowHmkI9ihFs7kov20sMZaurYVKpjqdsWGMSZeoES/BCOjTTbIkadiS3
1gELfi3h+LAyHYWyBS/b0RniHOmzhOhCt4clLTzHIA9OqD/QZ4Z/NwNT7oJ6ixwR
ZB25GNlK34OMuQ5JfG6SXT0MFW+9hxpeuIJb10BMUlk7IttoYk8fA43DjiZhFKf7
Jb6y/Yzt+zuDpbBHaeBJEd81qvefY4hDeYqnKGCkcBEYU+EyWJeseTz40oFRNcE0
/DryxPezMLw6EDT9Hdua7K2fugjDSFuO+x+vZ0LHq3VyffikJ1uvqotZQEsjZBC4
FIAHDT3MaxY5NtG8AmDEzgUHKNaby2+0rrOdHaXRG0ZvlPk/SO9LRkd2LaLqYzzX
G3RA/k22r8Cj5r/scsT3Q0bm2uEgLQE6d2nk3YMLh7r8e/amtElnao5pEpq53zwW
ekZ7TR7KpFoNOaO1JQLqgEnd9jwljiXkPbIN/e9zc5g9TtR8s8nh90n5RJbbUDIQ
YkcV0aEN1HuJey2BE3Ba/ynkAV+FTDVrsX/+UfaCy685jOJjMpMwGs8L5/Xi+MF+
sqrG47nnpIBhFZ9BhPsrCPD/2THOp6t/8Ns4PD1cHm3Vo7ZyLwmn2Ncx7IeGZy4Q
CeV+/XJYuDd+vKcD06XcXfdCFcH+Iz1zQdp6DpFD7I2SgTJup31FTOC4S8GDg77+
mbHssFyhxm51eNaixvfk1+g7361Ls9uciM+g/MQ89WhkhZiimN2CBjVq5by0EhDz
i8rvpg3vOWVKxYiXEVAux+zGgW1GxvZkiTLGSEEWCxdNgm5jI9XThlt0Ahas8lbh
bfeFOHwhjVs2kICVFIcGZX7dr19IroezKHfeBP68VxyhtV87cWN1f6DxvcWSdXDx
sytH/Z0gWXK1j3TB6+vrCMgEiISVyQ9ZjprnbfEuHYSo7exEA3sHMjgr3HcH0Yjl
5DOHvSXu68g/8SsAh/Gw0Q8zfC8jMqmAiTf1OsmgJcAXwfxpL7muezmEmKINzOmg
x9vECYCjhoKdoRfZgUtjQQGahlgkINeoiJ/ZGyaC/Ph9GfY3YwYDjVH0I8S28oSo
Z+zqaCBuQuieItP6nQ7D4paBeStcMLRuf60MsNzuvoStAPixwkpU2RauW0gHRLyZ
lvrTpBfM3BMJh+W3YG+DkpJMBv5u4DLnHmRJc4jQ4x9OAGPcvz/C/HzD6VZ719k4
Yd/HN2OLVbqK5oNeKwcgY5yRM7mBfp/S43pV4jpe+KCfbxAgLTi9jHPXVawiombZ
n7lKpdWetS5IDPbtlts59d/KqLkRiw6B1o3EKyOnFMaxGrVFZbFWap3HplAIYHM1
h9fOmMa9Z7viOLe113RiU55Aeo37Ik6KAsfTgtthN+ilSp40Gc/p5BvvpNPPk1c0
s+fPbexA8aajwSSwDgMEFGMucEO0eOxBBP8JIiZmkiaEDtWfT0O20YYwHlBUyZH7
1/B7F6AMgzJpbqFQNtgaNCXtOn2eyMRMgySWKEY6XPs+hN3+xY2cP8H4w6EsMu58
TElZpqHG6a2bk8hRdeyx13r+0gBCWQQDTioDN81alImjsh58duiUYC8ts9F1mZ9Q
hhTsxJtS7LJ/RhuzCKmLC04QSvQ6BUgH0r+pu0iddZlIbw3u1JrpWdKhO+BXYCKq
NzUHLHJ0H0zo50pFNJK3sf6Eb28DA4I2KuwBxYNA6fXWzR04/vpWlKCWs7Br/dDm
kpI896ZnBCBLuMTnqrlzjNJw4278ighQcedW7XOnpXuyhymqp2l2NH7TJjrA+54C
atHfr+xeOc7e2bgpCFoEKH+cb04d/ZHuFAm6k8A/Ke6yR8H5b1e6KjpPk1/TjM2n
7AcaGzjpGRtDgj8gHPu7Ky7wcS0EZ4sLnMJF+pM3lFEcT9cBrU4jLh1c519dxZFF
EEwoc1SRrviPt0yvmjzZXw4j4/oLhaE5Nyuwp6I3ulGj6rUfBc8lROU2Jqr/YACN
mjpkj+H26e3TQgLw15Na2a7zB1GmsV0f+stvkigTxQzGaOQFHX1hB5kr0jAxGHKU
xHigxcZZEjlAI/j3G0BuxvUpRfJmFaQEFW/OjCBILZK4UL4bS9GVEb62dynFjyDT
KhtmKMHvij9gYr0L2ZBIdMNpzPDQUoIl9rFJZREShA7VAXDh95w4cmOfNNgoe7B5
cXnIggunHeaHkWKEzIKrQivb/vkEVMVkbcEJ43v/cGa1vgIY7IYKhs5Ouok7U98r
ErEzcZEK1YFrFombd8QTOs+9yUbR43BQ6eduRfhtTbLUAlFURpshruIM/GIpb1sj
e4EABPljbOofQteuac6X2gyuiy/IjQHrCfEJ7W/kNqXlzGVQ3I35YfAOGdL7w9LM
NS6r1kZCBGPUNUWel7lIewPE8Evn53p387J2xf8tt3bsc6ncYgxTl/INGmDd3o2/
MzE09J+5htpE48YN+iHsL+K4aoD7ji31AGqcl7c6azHLtpsrcKZoPPbP6D/YK3xD
FXRCKj13hX+8KF1CjPNiaqeFy6vkpAB4+iboRpx9/8E0aDkSZ/Yq1oDmXxRLQmvm
vzP1lB3D0l4I9av1V+UPfFyQSgg3CVX9xY8a+MeIu4/gt7w2yVy+lMloUiXXSIcn
dYXhiEx6GRKhE8IvjioItQQw/f68lh/G49ALSdvcdxP8SiKmf40QRlEpuidLHCZu
a7nq5negmvoVmfca2lGWJGo8hY6gJtphTmm3bCbWOmCPTuDcVsM4DB3OG8b86I2J
oh7EK/IGdfDqLy7QCC8uZkfpBwdMcoCoYjQq+o1VmrJ07H5Yex9sNe5ZLaRBO+nS
8MKHhhbbsEbgwCrKmxiI4dPVrslTqdswnt/BP07nXcvXeHm6AAPllmN9c8r1lLjq
J4/rCJL8vxZyB+L0Wu/dTOeNvsKtAmUcT/HxsqFJt99UNOviirhc1XSf5ewEeH7h
BNdKWg8rKX/RwbYDMtbIS3IQwtJHPQHx5E2bU6RVUinfnJ1EIFuALU7r8huTgo4G
2DvOv6qEdujakwxjkdwFGggGAyNF/MDzkuoJiWzKFeuZM0xA+9Y/ChdepqeGowdz
+ubyuxKxcQSoXlKLRKN6EqEL6L+n714y/A9ofxB9XPWieU+tivWGvvYtaysCQTVt
oc8savnV+gAaXGNYh2HeLOGgRIfuQF4FSa/LoIxPV5msrXR8U6jGb9lOoQjF0H3Y
BpLfBSO9xbt2GUMdpBEJzRfSEH28P33yY0YvLhh/LYnoJ2yLnJYERlfhc/X3c0LZ
SFCjQxBX4HfUu+xfURLxA2XXRacLzU2NS5LJjiP/CIkgnuNJIL3E+yHwhV3bv/mA
PkwrgbRoumUeocGqFpLqltQhHknYWbqgeYWnUB5WKMTXO1nhOXdc2HNOAQO/gDVe
XkTTIWaplHCEBYcs4AaFtts9LXvlYEtcnSJxnxEWw1PnrLpVSAJE1GP48sEijQlr
zIraCPbVAS0fOvVYodbk3leiW+r6l7E63R4vKScsFHnL7WITBK4itz/3cGqvtKpm
nCb9s+L+/DBoJbpcDIfMUvE0owJ8+jyymgAKOduyFG9KLhjEmtpgjlNJJhJhjcAK
eHCCjgsk6L5JHkPiBhNESC850sdZVtv0c7HKZPsMveNhQB2nOp68GIqcgrmmlcYz
p1UpFBOp2IU7SfMh0LiftxxO0MAX9BfoEusCKk8FxNnw3F9RfLeArVo6mAgteq3Y
aanan0ywuRK9loDCXemaQxd0x47cgdJOV7LNzl/3AsCNplO74VbB2ImpjRLwPIfH
fNHa11ehUUBIzJ4N8xz7NMZbiusAQv8dhQv18adrdtQZ8TNK8gYgWvxRjaINHInG
B8OynDhTltq6PXVrxXxETunJqzj7yxHSkMw0Qz23pmRl8HVbe6yp1HYhs6ZC6/Xs
cZyF/3Uq8zSvF1TETeQwDeAx21YjKepWfSKnEVy8ZOPr0dNY8UgUXHv8JM0wKW4V
az5MSqTzKDi4ST/4XVuG0ZnqN/SdmYQMzAYloQq8PAo5aWPOlCjcUnY60Kqz1wUw
gv8K2Fk96KdCuKklyim6JcrLXE3eJuNtInJcNCVuZyO+jnCuuCYjEp9crnIe8zOY
pj5ZWefL91bMDjrlakHM8pWH86mLxBotu37MRrTSrbZ0AH9GZ/MP5YnN8T88UeSN
/yPCY02aDIoIrrPtOfvpAuj6WIXtzUVPhCuzeEf65vux+XX2if6f8CCWl89vWrRW
oaIJ/jhvEIwKRlvrcaR3y3tSB1fhImVvIvoK7Jwo6ItT8QO2ePH9UJkb0qdJnwe4
CcQfmUxjXG5sAct631Zz2rrB2O4sXbd8y4YriEL9yj64fdo4FX+q2dDsIK0mxnW2
XIcpkwThIfTdbJZpwE1kj3eFEMmvTDhHXxYOeyhCOSLzBYZ2eqUJeFXXZS42w5jW
c8ejoW+x3VJYKKP9FzsyXHfcYydVx8Y9QKjdohNtXBcBJS6i5u9sYRp1hUW+HWc6
C2iddo9LLlbA8z8wgy+WsxhQsAdZ1dtY9ymR987VLwmoWu6ElIDir1FqLOwaXrl5
eZ08CUJ+FZdrUbWkK0l5Kt+Lcu9qc2gPX891G0Sapbg8xfgWpsXLOAXs3Zqz93Ma
BZFRWcc5Ki0GwI8EgzGqIRxmj4bimtwA5VNalmzvEK/qOkvWhdr1ibqp92xoWhK6
6zIltmakY/BJwaYdmPX1D0G7encFBR4rI55w4Rn40fG2P9d38BNAcxFY8A2mEDsS
WpLWC7PEA7jCm9JdaftY5Jz81KxqHlo2F5Tx5gubWw22ya1ER+z6QCWk6rDRad5r
oWqgZ/OTlArGoqVv3OHZI8cXdPL6D7QaNAKgTw4JhEcLqC0GFZwFAqtfIjpZ0qrh
WQhYtY/9G/kffg==
=gIOd
-----END PGP MESSAGE-----
