-----BEGIN PGP MESSAGE-----

jA0ECQMKDTB8tF6xIJP/0ukB4eQTffxaboI30vvE9xz+lm+zjFrXPccs29fZhxkJ
YCHHd88hxo0/lp4r6Rl3vskArynZrVeonv7Js/CcpIf2j9WL1rjfCTSTgPqZ9h5p
2ENTIJ/XVw0L9d2lnO6CSS6VRqu0TP3Q+T6m3milQBqpAik56XSxrtXHG0hu7+yP
3zl7nDXUlYCk/Hesq9CrG39cgmZSwSV8F3NMFTXc8BURTNZH19PpW9RKDeRgQxKs
YrC8rKUrfmDWULiDAhgLJf0PRg7LyUhpJq9S7nsGbDO/jD1ftj4F2vHCZ1BYfYo2
aWvQFm0+eO7f8F9v+26URpXlAXyoRkse+GnXTTCwXVCA3229Y2pBxcquGR8IfmTl
Bts1KrQ4txwNG2Clc7jnBpU0Nk6s/A2xwcgHt6TGfJKWIcoIQOg/ZOf9Q6k7ntFt
zxNvR2+5rmXxPM5uSDrdQXMnfQgOrjx5ZU/Te1ekZEUr6QyNTjNp9tHr4qYmaXqM
tRZOTxDl33OGvjYR7q1Ec+mKsPgBzFiIffSz5RuzTwu+4op+XqRnqBmmQ1vgzNE8
MvJN7rq3lbWTsbHm58sty5OcV9B8/Yf4j0o/yBecXvtCld25/UOm+tejIxmFrBwh
k2ER5tp7IUaABib1Wnw0LiUBdX8YVHiOuzZeUBCgZBEFqLjRtTIoCZOWZgcJUPYl
4cAvv1eWk8zVEwBxgWdR3ggDUEHrNwDebqxqesZ+xq7RrYcwqqVknRaekEuAOqMW
lOpLTPU8A8f/r918CYd3axDaTYonD2Zt2rXOEGMBOky4KG2WACXuQrAt76s4lwtO
O82C1bPm3rnSO2dJYBzl0Toje90sjzzZOm2u44dX8wmqyRTWoVWKRDmw5DQFfzMl
fdYR2OvvbBS/YvLJ4ztIVv0u6xz/WTwKXtDUt8kPRwA4KxxCTqKPb6lYDzr/LS9w
QSIRf6296KeOVIc8SIImAwSTw6RdABtfSK4BOh/yQi+zVGNiHnLk99lc/Pu26Qt8
fmY=
=8TBh
-----END PGP MESSAGE-----
