-----BEGIN PGP MESSAGE-----

jA0ECQMKFFuXpgB2BNL/0uoB90CQIRxpnGCEtD3ieyllovWDa7GTQxDhhNmp/zNo
/CoysdPutVPjXyiIasaCc3USMnPQIZzPpq8A6xKku+YuwlDLf9hrrp3EyKMFRjCv
zgF6nHi/Zun3rwrpHxHewxnGqvWUrUQnktwYNulxCVGlOgUFo+XiEub/wRJiLLQi
w+fXQGvYKHfo0FN1QvSCoke5rYwzwgsY5w9mXj7hveLQmCD94blIuA8YQo7aucZT
7h1kAQ55LlYVkcVpTxi2eugfkFQ7ThI4MUFqXm9VJPxl05krMBFUFmd3Gn4qWKnk
qCZZ7OVneIEuvdYXzkBmaeKHFsy9IsQwbSBDAzEGVO2IjHmAVM6gLLvEp8ogW6GQ
/awVkOt8CUdVFfKFsLKROq2NKpAY3Hx45gAN6N3nN+kWrxAne12K9SSMZ1has7+f
kZ30a1oh52bYyvxjfQZf9xfK2YgUUmIayfcXeD2cRUF3mo7Sh0f1mnEvgThcDppw
drzxaawri59wy+G3HggZeKR36oL2zCQ6HVdPQGlnGK6mGfrYGTbdRe++vMtOhocX
rh4NB7k75ivbLiFS5EqI0MLcJ/F4MeZgpQ4F3yxr2X+Fcgf+g87+Efj0UYc6okmZ
QchxAyS0fackfRgy2B8LGwR6uD9qKZR07OcSncfF8Lav1+3a3GuCq01R3TnmYgec
zoIIb96tjNyzuVTVMSX6OzfrOvDWOWzTY2AhsTUUGck85HD+mRc4gWoPfq9drRG7
zVGqvL5j8P5461i0c1/AK0xo9vDDJa90J7wTxRw0UNuR/Z2M9/nnaSS8hpVp+YK2
FN/T57LeDCpPTWJrYUwvXVidFjIqF2xbvWtpsmAHYbf9TByvA+VLFwZ1EEsSy5AB
Ec1iYoHDIYD4ojULUzsKVA8cXWF96ZrT3biGl0JfY36WI5FG+b/k82OZdP/r4OKb
DB/zlhvEOllp6QiY4d+QSaYi0Kcy2qjO7Srzd5SjSXyz7IWk127i0IaAY5jEdYcY
5qlzAImYNSNj6mBms86OIK6xn7/r0mlK8gCx+gdyX8kjgYqqCk3Y9l4CaFlFGyH/
o/nx+HzLgPxXdPBwd8TsaP6nCJncqmtPMjB12D15ZuvkeampQOH2+qVyvZcdmblw
w+UkS8oKRd2zOV1NrC11eDtAVaF6IUUGt8XXRiV20QX7lkt9KAwcZDKO3Y2gx1hx
3Ew1+MVfGhqQdSFA+W31FsXMos+qvjmO41OS/HfSIJal9kUl6FldQZ4wyVjjh2DJ
sI0W5h6dSwIa+jv5vxWPA54IFiPcED6nmqf9+RRfApdjHxwH93D44B1TQI2nzNlt
NaNrS0AQcplPqt6OA3RLfCuN/SY49Cf9uPSxjIdhzr/s6vQ/5gsMg4I23pcBXyXJ
9LsvgvG7OQa3l5Z5CXKeZZ5tVCk2UOKCaQf3pfkfubWQGmd7Pai9iwuuRDO9CWh7
K5lCe0BZl5eZ/ZuMZrvOMqHqz4f8EfUss/HabYvOriVXdPLJ6jEvPvWt+yzG3gpn
9UT99f8H6wQs9baLkbAnicMBawVRCcH6kIQgCM05fZ11tGkET2YUmXVaDQBJkJHh
zgqwMb125j0NbeO9x2Y/1B2mYN7TPxa8RZklJ3Gd6fbb+4YfEQgbgOAbx7Z2KCv9
czGOSkxWa03w671CcE2ZQmP/j2LdjnJ5OH7WLbB0JvPbsXc57g71ZtIdhhslwucR
Q0RhAlry3CKDNt8yfyqXZXiJNs+0OzxwwBWra/jm5pIBUXTy+HpaZj8DLkriXi6y
o9okZj/ObUsBurvvvLCtz/oDkO0ViUDrsSrmBZSeOEuvtYVDL6hiZS31FBOpa6RJ
rPDHsLqHtgp2s/h7sjSZvEgU4FvnIYUY00PreEbgrYor1JUVljqWX4YgI72TLslH
ZGUGjjariNlhAt4IVMEVsm0fFpm8nLvLoe3IpUh78STriY0NcCdhizEJfq6EQ7le
rvviCDsEZvym/spXNXMyfK7PhVfZDgQzzB/XsOiPOMWUQ3UwxqPEg4B/X33w3aAK
rUhlwwWtbX5t43xWqqn6N7xCNhL4LPm/5+OZFLKb7IJFHTIf2wwbpDcCHFASErLs
0Bs/mHpcNsHA5OYO5rrgViKqM715frhKpVEc/3c/u0i2wkLng48qBMqg/XQEecF7
czNQUq3XHlneZm7oNpRy1JNMmtdRGNuZzHXxu9+Dg9K/1HN2y1h05glJC24wz+VP
5cYvhAs7noIMaYK7RS5Ul6DhsAaMiP6rTpOEf2VTPtM3SD+nvmvCXeRiNrC1oFA4
QUSh4MC2/utJbJFAViWO8nGlo8jkTqKHYJ02Iv7E7k8Kg3jqiWIIwXi8kCFBNoiK
uOVgxSfztb/FT7Gg+yP2M4n6QlxMluIP2PZgxieb5SmrK0yXpvvbT/Ynrm74LHSR
14fLMudnIeHm8V8rmMRoY9MP/sUrcXXAC46/CgeXbEyewoDi2FYE0hIvpcoY1/el
4zoXjQXbeHcrza5yZGeU6Bwh8Q2WPUZV4OJMqB8gkpOjc33X+gMUNOnzXyB5EW2o
PWPtSSZLn06DRIJj25Ejg8sfDUzz0M+vIfIbt/xTO9BPuXPKdc1ab+qHBEIOQYQl
n0S6+u1e66x4L99HgZLV/Zby/K4LLjBV+dT3mMMMtzhTGG9CYKf+hIlVjOU/4XYl
00m1tD8sGxIVSUvPqLG/eyYVm/paSOUPOw18imaCJzSrgytxFTM+TXPDLqQjHYhV
vUPqK3WSJ20d2vPxwnmQerfviSEhDikzBKRnp9W7IlHHgbUjljmhqJdGprMFSOgj
2M/6/efuloEH79q+/iZWnpvJACbpm4KXLvq1hye2pfqR2Xqc6EcPaEVapZ7DhE38
ZsAmVO1yQrn7gK0CKuZ+J7utakgmLCKU9Dox9K6ejgdh3dDNcxPpkCigiRooAh5l
vCIuszVm/TT9MVQJ5etMnmquinAniR9QQMKNhytl0qAbjyTTRpd+1EMd9L+f7U7d
e7e9xUmlLkxUAAJRIFZ2xQrICdwXK7I146kNDfupOFHGod3JBeI5V8/IhKhP7E5u
JakBR/1YGs3sgDMMXQ5drGMtyOcjBIReRRrEP70kxJKVesIDWU5WmO4Q4YtokOMk
9KIx2nUorAAsovmr7kAMYNunIAnF/JDu/LGNI7q6Wll4pF4oqxoYhiBKnDmdq4Rd
FkvsZRaVKdffv0fJrBwqzLCmbJgu+lG7fT/b2eR7Sj3D+tazhpmUn1Iug3flZr+u
+ktvKLyPjQpW+M2sS5pDkK7aounzSi6z/LWLh61n/Qyh3TlvQWth7/o0wXSABvF8
2IAcvwXKFfA1girquPW15+eAHnS2O/XwmqXWHXF0W18QA0RNC3vEuDE/Pj9LNesr
7FP28qDpnPhW2DOoKxJFZT9oifk28ZGOl2Hygm2TdBPu8Uh+AVrMRvxr/TejJn+F
TVprr5IihT6fiaVa8SN9oRkw6tH0gTMVuqLPI3PV6WH8MBGtVpu1Md6VidIOJQWK
nYeVt6ZSaORwUEjU+LSU75Dflcf8XCo+qvVCIUbFx6UzqzfBariVKqBgpekBfqrJ
K2nt/bfZeIlHzDXYm1EzYCz9TTIkrQFs5bGbuLcyixgT7fhWo9xx9j7EC0l01Zk/
LD0kbBj3Ps21mJhvfpTwVDyJsjMcQxffEWJlsv6YqynjE5dlnFn8j//T0WHqOlLE
S55fRQpp4gMoVlHxBJcFIEwkAKn9VLGgr7p6ko4ywMjkKC0otuxhJtbzOsi8A4ze
2dYlDbGXwR3pBbWIfOJqoaotCicKQUmUmXLOFZU8ahKje5N1XMLuj0fcRWwIfxDm
ncpqvsiojpdHfScpprLHr0asyFnFQXTJb813m9/5kDi0psAc94e5kqo9mBpjTRNP
2vmkYpd7TrrdKuJe9IDCcXZrF4qVwUZkip+lo6++wob2ZrgwCGVNtGMzrDGralGB
Hr8Z0TUXkSKzV0eQyeuftyA8VmZO7mRL3PJo1Vh8YM7CyAPHLo0V1qn0UF//XY34
pHUrOsLkg7njFdQWp/7LT2X5AnMafQd7ONc4Xytb5lKHJCXIu6REkPTBIhUC2e/v
2g17R3SuyHRn7TKguVQ0vYux9MCUbwZWpX4PA4Pp3gkQmlUgllHUVWAyYJ8Hyrn1
/pAHPPdlhfdMOB+P10bn5UKI0BGt8YMpM5Qu2fi+rdiOR23Gw12y9QunD23z0Viw
0Fy6NtihDxFqIA8uiHUqegmQKxahnj/YnFBYrHIkhhtw4PhzhBi+wW+iIz48kT/P
zt5ojndouM6JcYZyV0V+ddpCLAMn5hFF8+IcLxbdzyKhscfCHo8cYOrv0p0+l0MA
SXg76qER4S4uJOROP4rw57z88lL0p/NmwjovduQeglmfgtwJHQIDmuzQe/DjxzSh
1QOr40SqeGVLW7r74DwvOwBLS2CsJA4q80EBLAYnizqWln80mcPmdSyro5BNOdYa
/+xu0WGbmHun1WyXHdYWqhTpSnhRY3CznYPdVWVh8ZqsHWE4DwIxTlzRphHVNSXx
VpOX/XND7DRjCDMaz0RI7gxpM3ClywrpAg==
=FE/D
-----END PGP MESSAGE-----
