-----BEGIN PGP MESSAGE-----

jA0ECQMKHPAh9nB+ZyD/0uoBTXtnJyG8RN5xKQElmn9A5jvU2i7K2MntJNwWqfOT
jvpWoAS9+T/M6I4nEvQeBh9Y+kqVEQQtGVkii9d92G8pUzTj1F2342YPVG28RZJb
7IDg99xw9WfgrEyCFJUqt8+qXTL5WPq6XwlpPpZhIs+FcKxOEAMdAJJJsvfUViga
Gw8WfEglwz3XdOjBepawkJ8QPLragglbK5dThWknBcwr961tgHeReVVKlYvtkm5/
vIJSKtb/tq1vilPIfHPzGrYgUl6/dOfWZjLfGTw+UY3TyWKWdo8nUoBIXDflLlww
jKa2yGSXHvMAfbRlevzeyTHuOiLJ5u4sJYX27cukxMRHcoj9X31GhFN89P3emN7/
LhqrRLBoxMo+AiNK5oBHO9amrU2sRpi5lyyygkDYOUKfcKLgWcMFiwVeh3+pWYO5
du+H1M8Lwi5sp8jIOP2HVE4daErWEKEhsem3b0sB06ILJBG15Tce/zoVDWdge/xR
eQ1FznojjorAmB8CKO2DI9rsimPqLBxiEAR0bwT7bSWx2lMvCviS2Ab7q7ppmPtm
VOJB9K3wNOzIgF6I1LYjy+crsOBBqfsOTn2/RypFHxPi2L7Z6WJxYyJHEscumgHS
C30EmYxrXC1FoTaV1GGGo4I6chhJjt0LXsDi8cJo9rv5qr25uWbDE5D9GBIECMM8
MzBQBZ/lUbXV2SL/a18OBOqUGV1kFrwiwEQ+7BBQiIflfkEuq8OZM+XmHDI4cB08
pinEqU4NCdmC1UD6vluTOHnYfgWT8agZRS7EJ6jPmUkvFACk0WQxYmf4VjoaGxDS
d9KoV8y9wksd5ay/wmko2lmSKeTDatgJRb39QWickUym8pybs/wV/uxPRdo+CSbk
yx0skqOpMZhmxPTciXmc06IJWVg8mQu3cCFXEv38KFvTt9Wsd2PLDgOoTwU4Lw/H
osmAkrRXIoaB9WeKcGHKTO2/qNYLStV1C0bFm3EIQHFrQCjkF0bOQdrDy42YVUZx
fmgkzR3Hk90CLYMANOCL02dRWhfu14HreeQ1qj2NG1KhuE+XSWg1xwQ31SvpLzxU
CU549uWxrOz37O3YWNMkQWb2W6onBmfOL0RTuP6/V5cQlCAOcH3FAYrJsEtq6/W2
Mz3JS+i+VZncSpSp1eXGWPF593Ga+9pqIIf8TljZbXtKMOzu1ozM7nchcH3mxKsR
3Q9qv4HaP29/byqM5dy07PVGn+DVqECaBYPxDIX2zm27EfnjA1DmnbrRU6+lyXTp
oVlXWowUPt9Qb9fRiLZVxSHtn81GmUbs2MV+KBc9qdOtX2WcBwmv2dFxBhqNV4Kn
6mM1UYLI2pv2Vu8JSdQB1t/q2/E7gxDJogGyo28Zo0i16u8gYOSNEPmCL5dBGUE7
JGY/BxmIIgjVw7ZCkpjh5xu+4C2H0K7ZjtISHvqtdnD5hsubnjGg+2oA1JITsR/2
qfqeNIjtNaP6tAIjO4UJF7HIaoknuRa43UmXNQq7XGVoryz+pGoEInO57SCVVKQ8
V0EoWz0Q3+b4UbXrWe4wnkWBaXujmskP4wz0X3OX2447H1faOMYPbUcsTmTbG3tm
GHwhnekHcIorN7eJH/Qs8SdWDdGcgyybkyUcgBQ2w/EwHu5Xpmz05I0vZCZgCFOv
HEPECeoJG4/98zbI7TX6KEwIo3EFGltEhcRxPe0q4NMoAm9Y6XoVX5sIpLreU3iR
3ZAHoiiVbfkHkvLZ6QJ+T2K3IpV2uerxrWmjfh5PY4vbLQ1SxjdxNqh1lYuxPIlW
LlNPRbGDrCxxsbY7rttXXg8rzZl0EXk5gH6w+8ol+7q8oK4lo2fbemPQDGXtGXVu
efPfJG1m2rD0+tJM5Bq+3w8mgTklyftaUGhgWsFVXid/7yyki6NSpdNfiJwBE6IP
CmOAREbbXvMNIRRyUHwbXmx57bTXKo6d2H8CceK62tw/uanHGJdEJm0TgtOM7v2v
LP8SsrkjwjV3GmN9H8oTOuDAeGMNszEHJr5E/6XkxXvIQ0Lxfg8zLRKelr31VoDB
TeZDvoRhszalhXhvRFigx9+GsiWAIJUr3idOwyOKKLn+Pjs+nYeleeMzJsL1GNgO
1iE1cdIdtXS8u6Lp96FwwxLE87kOfNg3nX9uL6edYVyTqDEUvLb7NO1PCTIp7kq8
Cyalkqg8UosoMi7nD81fJrYMiSWi2QF0Wzn6BAnx5v/NyHW0OYqd4l6mEVuuqnJ4
GqdsZ7ZmOH/XEEQoMxlxrMsAfv0qypUTYYMdhGWLLuYT0zF+Dsd+lmG87XqEyKQv
vIsLv60x7IteN9yQGM0gpkfBIGVO/wVRzwb+il2nS+XZP2RKa2Cxr+E8y5/f24DF
GyXFW2V/2oygJ6zyt5xgjuUnxdCvtMT3ARYT97AoNnT3zTetKIhNaXvjGZlBtovJ
N+tr9jiXswaIAsX/TFFngC1Vp1uFEY4tT+qjNbmpNGxjUVIs5q+aZHQqAjKHmHad
Ie6S9jWwa2CoD5UIaGDg3Ai+z7A1YIWFpP/6zPl7kz0hUAtDuRaD/v6obwkCEu8b
i/Y4vYelR55I8U+49vNWBTwr6x8bE3xM+glWBRDY0w4eug7gS6hWIcD/g19HFEEW
E17jIianXwy3xY4MEMNqLOCK9qgv2KTJv+IMKLWCeUJUQSeycDC9kkMMls0dQIR8
rV3raF4YfDdZiueLlVJ81/X82y+0ZoOuTPciwfZOlvqBV+x6NDCd3hsbDrDCEsaA
WQHsJ80lSQzWLiazyC/XQix16umQhd58gOYLtdvMZKoVzKxHPctcPeVj7rsyALIT
oR95DgHELgD8L3RConZi8MI3yAnnFaIjPeHl8obYQz19WEKNmUT2nZ6sxN6+T5Az
+0DQdHZOhyXUaUlg5iw0V56GFaaTqXURj0BJQhhvvzKCuqOi4UgoRsZ+u98VSKzw
ClUvbNiNZzNpcZk93c4mUHWA7sgqOkCXLio+AOdm5EIeJpY07sLWv/ugixpg6ydX
9z2B1kPsJ7b8DjCVqYP0ukGJoIb0dOeK2k8c5aqtgX7ZZZweQc1hmmL2xh85sukv
1mFGaaVIL79OQrvtvJ/n2spIMsW+WLXdddnmt4NFK/HUIj7X6X530Q1cOEzg8tz6
/g2lWdY9doRjRl2Rtqx41WT41N4WFZ3xAEGweadbInJvCF20a+M/HkhlBjK5TJcg
iVNar6PeEygd9I+n5+78z1T+zIF5FhhZPbHKvG29VDQ5nVW3ej6lvVIdKlZ5eyv/
3dtlLZ36tmm4Oog++7vO2sfh8/DyrkEc19BeTGWldgl5f2yyNagux/So0xTZJ5ew
G5NzmNhW/T1H4/K8XmDQWuuctPGshWEqt8feblxMQndTqFANJUVrNtwU8ifvjmpp
mPjoSZZerfgIDLowBF3F1O7/DIIvV3TuzR3ev+0glzQaWZcb3LnUCye9aNjidrbB
TOpgAIF+x/lXt5kZ7QG5vNF/isoEV7b6Dpf9EaAMX5r2Lxm4W5gXhVWnqDBIZvkP
2uZ+CF6S9PqSWVNGTasoQMD+hDeHL0xMYsCwBj3ec2G+wZ36stU83qCo3+rMrNT9
etBkyIUF2ogeBpCfTcHp7nuzgI1vLPxD8MCrV9uSaYfv9ibZblbLaVbDyL4xeKu2
1z8LdMYZh93sSWO+JGsKWWoCRvepmjc4NpZzynBVr353Vgei315ZYjbuoXMYLZLA
t82ct9Ujo/psu7v/MHRgVSjXmq2V9J3CglgKUkNqRstXn8BvAY8+Ami9iEWuDi4u
Q3gPzxX+sGbH/rSf6Bu6ehekZRu6Gi9ZKcZwmDN38cjy6U5FVmhipa3EFkoRZvyx
yxK8SSvLwmuSxM7+vqcw6nOi4tssGss3ovwuoDvIDjOfPN7j1sl0T5OCzNH+gnCj
eoqe5ybxZBZ+iqeil28k4xA7u/gbk9qn2tBCb1ffRpjOhSJxOf64R2ezZ00S3+pJ
jFW5qhCKz7ObSx5vTyen2gHopidkHpcCs252Z0tn3G1noapxrTvJ6WCBn3QUA6AF
gwftd49DxB3lXNT7saix6ETGEesFx1iXlh0xGwgfr76gSbXTolytyPkDPHmRUMt5
HSfr9voAS8pULeeQtVLR3xZW+gqJMdbcGKbpFLZmt+7Esc4l5E6eS/NY7wE0d+05
J8CUj5JqGGB1DpvUltsvLbOJluh3vTlPv6T8MOU9bs++uMUb3y3oIa+XtOA5ie+u
v7oKCQilSRozo3Fm2CvkWuDUdFbNCjK4JQIzzVLWiUmseUuwuQoiuA55gtdqXM9v
MSVbciw6lUS9j4Wa99svMqgy9zSXI4X9kiOGnq79Na6Y2nJOtBZ+STQi4tsp1pfo
3FgmRDb8BSlU+K5aDBkv/JPz7p/DPTlbGcOjnyaPa6qtN3NpG42JBz6g2jL4+/nI
n41GMcQeT5C5TyIf8vKDkB0Ojvsipiliyis78L+SDYXOGRTTzFIXXadX2ySA1T+a
exy5cxhrHVwP8snvmY0X03RmOa02mLpexeoeYdZVN3CDphcZJBUreutBftql+UZF
swu7RJLiDN4stb1qqTHlinhHRdZ2JaZ3Z+9AVmuIf0Ia9jaZ64kcC1Z4W0MPeVC6
rfUlwU96HEPF0cny/5srNLTkUgjvODag7x9fJvnDs5hAE2el5uzQnkjqPVXlpnb5
YN5HbCWwG5WmlBxfun7Re3Y+HIaZ1h+qHtMW1WvL1I1ScabAX5pnJz57U0PBLkNr
PB/XDQqAJVSLYu54dDG0JbMSM1gxqq/f8r38N4DeihqXadGaJgAcyvfs2qJokKaq
Vyp3/IJhyyIQaKMejz6OYM9QHkPPoGP4+3Nz/gPDeYj3e8/2rhF+mLLOcVsLZsN9
uiXnUxXUJEeOePT4T85EzpzBM6KmHgu2Kb0zsShQsJplmwCv69etITaC9IVI3Gnj
W7aaff4/LV/7xAJ1RisO60tCcSUtknnzKrP1g9op6cnuGngGbBIcx9EFmXkjTspm
inhAIbzH5uXyhC742LnlYxC2J/5rHOQBR+MHrjDhDqlXDVzQtUUsGi/zA0QHOVlO
MaHq7S5aMuVjoP6unSD3BVzmhBA/GfRZweZOKzX9jJg3Ezqpc9XanYBYI4QJBrZR
gdEZ+xup36hnsHsQVApcs2fjTqZNarUJqt6CJeJQloJAT8BsTbbu+ba1r71VJy2q
mtTdnimoDsthZTPUrd6yopt4l4ZrNbRCuujwjDaFbjCgpU64FCK+FRywE+mPWrwy
6YfcS6CB/p3w8prVrwKpdQ1b/C2SbRe8Vv+UzHWYCGgX3YfJq4afj/PUh4sdsC9x
J8WvxBZGpJDgeZOrdMsmbx0VoJeS4aUJ0/o+6Nx77XpMOdqIEm57xJ2+uFqP1WSI
RfX/TStEyLcqaD62Fh6I2EsV/zc9WeWMQCFdJt3Zmv3xvQWy3soqK204nk9PRSQL
8XFBTpdiMbsfspThaGGCSpbYRN09BIKz5XwaUxEeIzHJa/XzbiubgSLlizfvZ+WQ
MpP6aM/viPoQ5KCC2mckTe96nrWc62Lap9YTcI4h3cFZqNJRJ5Rbyp7ftl6UqQul
oZMIvLAg0995JLhtU9kqeOEmp6PVNvhpXe7BD6dQNvpKKZU35bBM9aQh50aWUcmv
GgW5xqEqAcqPkrCjJsmxMj8nFBl1cLJWbsVmRb+ZPqfSNlScsXgXYOz0qTiki2F1
1o/TD6gTU7Bpu5nwxajJd9hRc5REss54PuLkK9zaSnx6dmO2fcP0UC/x9BnvOgJ/
4Wa6hm2KIXit1bIwDKPiTV67ptDQaN5O6p3cScfbVNR5rdxpVHZC+YAywa5LrNqQ
n/C5tCwh1q8Bit+yxz/sDQ8UMfyIL+qx1rX+ktn5L+sYeltb71Wzk0d/j2se3j8U
qxvJGyFaAlc0szntNWsAjNaHtvAKRYmNbImU+AptHJA+GO9W1roqvE3Ip8f7g8pM
7UyxK4ISv58ZTe1+MzBo61DoUN81QdZgv+5BJay6bcFxoYWeBx5CcDjR1QObdTvb
GqVTmv+tSZ2o9jdd1u/qyZHl1OLXSH7YftZ7MWTU0LJXCfIgCZuXcnn1rFEtO6jc
OdUSx5lKIMbQPEXc5ZnUo3vdmy38r3lNwV4PZQCM47qAQfPopvH1l8sVQPkfiOhk
iL621Cp841BWLzp/l9B6NsOFogNoormL9MQhh/FUlo6bp7To+foYACPJ53FHJRAz
x0TFrOGdSH2CFz43ISFSGGZZrJulkMrNVJG2QTketuk1Fi5CSA0vaoMT0FN/zYMr
ZsWSm6ktz75GZHJmCRX/XtvdVoV64dVdir+NVPkpmWrwXM8sz0y9V+zs+LcYqLcb
Rh/XVgIK0xTE5G6k7EunzrPrywzS0DH+OzF/LwlwfEfvz2XiWs57JmlqTk/irwV7
PTWk40YGwXUBvXztU3HkHF7E7D0a/IT/mTJD1tKVE1VJujWMg2KpMdTdIuq9xAbC
99euH+HdOn8ei7rkWvX10ccw1aLsSTDrqQ3ecrLgWkY26I7iaUymm1S/EZQNraX0
EC08urP/rz32mVtxttd7HyU26WQNE9J27a+km2ZFlQOsrhl9DM9EevedPUsQ306d
ArvAqnNcXZ6x5cj24vsK0dQ633IpiZtNTgEIt31f25b8sAhPZQJ4evJ+ZpRJls+z
5AX/4eKZNhct63ewLg30szU1/iH+lJbFCDxqAhday1GPeOCPu+BsJ5pWgE72f3cj
e9Sew9hTveLzxQHk6K67qP3FL5mp/hqy8mvJw6yYOXgRmgaVQkwU73c0KJbxZKXk
XGbbbU8sXED1Ui4U+PmysUTOlHr+WCP3Mdt8qYJVv/ObqvHmgD/Enbep77DNACIB
E5q2NqVPl6z3gYdBhANwR+pzz0u4SYvmf1DEnxOn96VLMsvcexM6EGOPyQFO1fnO
77GNfvsTDEwiwOySEIwP7gt35GqXbq7TBs2d/Qe8jD67XdoCGxr+2KavuGahoC2x
77UGmUaD1uxFCtkE3x4NjVFaKvvB9e1Dbx+HThDVcZPzL+wdlXOR5IHW95jaiK3a
Xp7309XYmXFP2tAK0RG5On8Nb4ZFjnx6UI++UdEKNhkItN64yObAN7EyldX2OOZW
sFqLqgAmB4W2pGC9loLyYbmZJ6BNAqdRK6P+Ft+v4wBb/AFQ/T10Zzr5BoXrI0WD
9n+6b0dNbwTouXNgWUlpWm3HXf4zdzezB3cNauW9wBwML7OxVombr5XTTkcYHFhA
d+Kx87rwiwWv2akVwPzScoywc9BOPnzVMXg94VFapZXOmq3Dkcm2yFybsPtu+AY+
YUx7GC4/ZulFD+5L0yxyF1UU7rOm291IsRv4ruc42mh7d7gCAxyNsgwiJ1Ubptjt
zk40FUr/kIPm7/PYdtuau0+9AAEICCOg+GZvgKd7yZSNwK5B8xkRStgUloGhT0cq
MH8EDRunN4ftbc87sPwhsR6wqw4cZSZ7dahKM45xM18ld5trIF3fZ0ipuIpIUezb
NZx6GuaJlG/ffM9KAnL30s1QiNLFAFp+biDLqWIIQaUjD6Gb8okxdB9/ZHzwTmwh
safOEEP5xBET3ao2N8Cm8vr2LRirJ9qhDbsR7iF9uL4DVdhIjzwpju+gjABZfO3O
Wg95tbSYM5yphLdIHCv2dmknme+3pTYUeLSulX6NmjFN7dskuVKnubpsy/hwX+K2
GiSoEAviQsdJb7IHh/8V/CFd/LNlS2VcqH/jFhsXtEZx8QW/hcD3ne/hm1jkZWIQ
wioosq2I+MXFaN9g1Cmlii6ster82J1W6rXPFE8Zfv5DlyL07FCekVNXcd3hQB6D
1NnDHvseK+uF3tVeKNVWaQ1eHeRwXIeM9wGkewPH1jXjkmExol+NpkWQn0jyY8GJ
QiWc1d3RqZXWV8J6eiVcieCVcrgl/L4dDF6e6gjA+dGesBgj3taGZDMpYbpSGwMq
dWB7yM+t1RROMOmvBY4Usud2JFF0cDIXHqZvQlYG8rFskgQV5QyOij5IXnRaNiMW
mQFJrLh8b3HIF2OKWv8zkxdWfFV+tEbuZLqmjF203biIQUqoqc/VMduNkB4QWeYp
O59UoXslovI7pSqsBWl5eTgqSJVV+Rhb88hwxwrXLW+JGTTKw3UmlOS4U3W0H2Zz
ONchsSjXRpO3dItIpsbJkZS9derVTb0FFkq58CGMfVMcywVp+g75OU9MZa/QmZ2P
+b1H42lhoOt/UWyiIDN83sO3YuoemWcfAe7SItmK8UTvSrt1yzU3yhD/tQNRdhWh
WgUKJ7M9bFq6Q2Lm5EyPUMo3Oj+OaKbM0yrLiB/HlY0hBGp6Ti9NkiDX/GFbLh0M
7MeyXI1nqdZfaJZVXm5gNbFITlaKtyCL5Tz22WbkaTOm/JxHng8CNf1UMHQW9Hu1
yUgnO8nB1YMgHvfqQ8vO0h6OI+vm+eN19L0VSZHc3yTsMl5pzl15nl06WWrqvSWZ
E+3Q+FA4u3LhuJRS1QsEyoSnIQrXLQwn30gnnOu584YN1WYn9BiRc6e5S+fZ3Fwt
+jGG/i+fn68ALj7gebdea/D3Rj8e6GIkyI0AMa5LFvQvA7593h6q7vbZSSOn0VR4
zkEJXakIlQUleYhGEa0UgJUt0hMu8z6q2UYpsJ+TE34wTsvFs+u9Br/5XLUzKc86
owngkAtKReVYpBQlyqkBkuVGMNLACOE+v6AVxIKr03v8MklmPe+qv6O7cZj1bxMG
x/hvTThx/BF3IH49NyWC5LIiGd4pYiz/hJl81LY7W3QZy+ofyvdv8/y7P+diBpUt
5BQMpnCf1xj3eCCbmBj0nMPdvBzkJXTItBUy/pv3DnTNS0JgFJiqgPSL/SSLr9/N
iTXqE/R3hRkWvbx8zfz/ynfdEWWJBpXUfNZiOj5Bbcfv0ZhlqRcq6or2YJOTuJ8U
SoW7YtAMBFvsb5XJnWlxZ1AM2ZaTgoPKZu9LS1xZ9YsURPK0Pywa3E7ADDX48HRe
6GN3tz9UfWiW9yXPinT+ISSMPO8CkeEX36YyG0zSt365lymV8pFxug1fC4tpODjN
rR79GWfF3qQkq3ohcVVt0f5e9QwnIhNgonoc/Jtu6rL2U8CPUxgTr0eY2dTzAP1Q
RcWYYn7gsZq3NamWqaOEN06LGkx/2neQvKMvQhJHPGpEwsqLeT4GRclWm+DnlCZt
aa8NjRigoIU2gpopRllaH1IEanBaXtQNENKpERFVteVlrXOKmk3IpRfVyxfJyqsy
G/M7uP+j/VlqiTmYbBnKgmxIHDRJWT6UtuQr7fRJK4EyZ5ypp9Y7G8qgOVNznmRa
dEBOJR+mnAwHzPEYiI7+NUyvFH3m75gu3sG2uaUSCRxlEZtjNe4do+MIsSu2NRuy
uLsz3uugjQFDRDqVYWet7W2+2QE09UbJ1ehoIkUw0+ud6yRvd9vUE6DgtI7bRv/3
hP7YwVKodUKYkWwBWi2j08CJqnD+5HOqdpOWczJ2D4GkX1zEZe6Zll8RXHqtb50H
t1kZW0EV+1/sXq1vevnTdXyIlGpdaosH17EWrrpXyh4VFBY1rbD7IPi+i7I+1jdq
lONz3jIE3M35SmCrc/IkcCyibdJFD6NPnCmcio3REh6zCNKV6YH4VMm8bZzjvsyq
99VuqkXz2yx0523veUPs+mtN17kdhHVRN0O+RIHZvdEnB44hyAqJW/+/9sAeVO0T
P+sY1yTLMPyBJNlszu+ovP9IQxzHEhY2Lp7UM2x4jzM3ebpReZGP4LH2t5hDd97Y
Yi3P+wniukPlbX6ftohZzK0XrFuNp/TLef9g6kNRaQJvwUVnrkZ4XBWYoo3ADdi3
/rsLSegP5ztjHhpyyNI5UCgDa5Xp4daz4Ew3hfImnLhGJ/5Uh4mVUOiAeGv6UPII
ZmK0Y/QHjTpR59KfIPnqk0TOhQnD0CeTKLm070ctwLZLb7G5IQUsEza7XCoNiy5G
G2LZXRLyqX/0ThTkMYv2LKxJP5Lh+npkka2MbKn82CzPFSWIvHu+oWTz4bZRySxU
yx025mQJkmy4SEdzuPon3A0EY/Ba13Go6Ws+LHVIVocVnkHmMt5/Jia1KxM4yTL+
Ap2SJ2gt272hikaT8qL1QeG9nTe/MdZXv9SK9JiouRf6f+D0Tc5gZPFKiPMst1QY
ug9EgHEvF0dpG8Qq28pHlBSQFfoq0/PJp0pEz/pu9PEDRveU0+beT/+/l+DgmIww
YHSqc6oU1QS1U06J8F0WOstmfxgf1tmDalTlLP7yHmjs46ZvtA9OFMfIimys0y4C
NWkzZXZMiEn0JnD5fM0lXUqOudnpwTqZ0D/JkRg8HCsByaWfy8AFXRVLl2ZBE7zV
AKPKU3ymksOHU20hior3gdoE2UjHlf9mm0PXgnzDpbg7PgTbtBo0MKmRHHo/Va2m
+UpiT9Gv8Sx1aUh5qB09o2qje58zM5lHZaD37gcVMdH6Xmyp41UJ7nVgrhC+pr7r
80WLJ3y6y1X4x6Tw/09kU7XMAZ/YdANltIAJniszwON22EpS8/gbrbuP6pO0s/H1
6QxaRGik16CGmtxF1ffFBeSkLA2+Q2SgGZ0eB3zT86b3gPmkcR/N3oxqA0rweJi9
LKpBq98OCA8B1Yird7Y3GUTbZUAFkoucI32shWtfxzwRmP6rzgd7afQsVxuoZF69
Z03rfziJ6ht4ylPcmqLJw92sDh5F5AFcMNVgw/sI6TMSPcL9oAReRaK25rdWL4wf
vbTyPN6KM/u9tt71hLdAq7WzaP9EPN0SAKadNi7JYxb+PKTh0UeuuWWkT+xX6cRH
AhyvevzsV8Blw6ZYEui9mh8BYN6B85rMrVfadj/n2mDvrw1PXw19FwEdZtlRbLk6
ODGqe6FfmnqIuvluiFMXmdNqa8wOX0s7MF8IPeb/oNWOfxpyMvbWmMdEEz1z55NQ
S3c2/YyXVJcyNNO/WamuaD4u7tEHkQUu/hudilr/n262v9eqBju+qXLBnmaOgkn1
3Q==
=5f9T
-----END PGP MESSAGE-----
