-----BEGIN PGP MESSAGE-----

jA0ECQMK9xOtfr6DAwb/0uoBgNlYxRHO24Qp6Igfdy2cqdH2WJIo4voqgGv5aBZq
vl1YdWH4XLpJtYWzV3/W1s4Qu+kTmakBo5puvN4gTgku2EGorfDq+zwtABET2sS5
Jwbdf0p+XHwoiFkyxlg2v40QyAH8WG3/TQhwcfpD68yprgSYu1CWv/SftwQTsliW
gmUZUhq45ThrJNfL3bCLZBwdfldM29g6iHpYQ9j3N13RyKnA696mnjt9nH/ndqwe
vebQXeCrxTOTm3amw70DkBuQf6Kh2bZP/fHtA8NLcrOJ25ECoSQmw7OLwzw+tcXt
tb3oY3mLsmfbpIvXRxOXFoaxqi+9E4dBo/dZnztXwUrEAXqEQF0DxmvgcstODONb
p+vc53zIaP1Ko2B7ZLD0fjoRGIMDOYZ3UQZPjOi5yJHyA4FhzOei5n+9qqG5zHX3
5SD7N9Vwa6r974xOyJkH8H2QLQX003n3L1MmCH9R9K5Fy3AAycqGAQacv0+XFVCh
IapCP8btpwyeCjLTdZnfkYeOd9mIkruEVVIA6SVPMU4Cn/MV9uNFdgonmC3+m+E3
4KxvT9O0EzGT/QAzFOmAfekA2zKYulHuwXyyhe+Sudw5lkAMQVQih0ND+IHwYHow
sxH3IMHdo0ZvKp7BDkEJiWnUTDkvZwrSTwWuOfgdA1HtNvBHa9EdksG2/zLtNio3
gYYwejsaZZyyS9Ro8iVyCHzkxZUqc3IBM9XjRH/xxVjQPJgFRrqEjwoHAuhgkMuV
CJbwVIW7oFGAzACJVhhwqHg7/Od9MwwGuIn0L2b7cHYV7/QwkJ3Bl7XKxy/f5Gta
CiGKM3WelD9Slw9dZBKynfjdXWwjc22z9AheZPhxGsHeADrb6W3ZAnbdQRLt/rd0
YPwfzhGjyGTB7anh2s3BWTKRdvlv2RqKJJafReW5k4HPaWOKPNIdIr+UKMjEH7tg
Y5Hqvvykef1KzDsY6XkT+hCfswgkc9wvtJPq/LI7YlkJWjEf6JhiZEVO8mspY7bJ
qBn+unh0WqIK0ocNo35NktMcngXmpR/cF7S1xvWMYLlc/bTCyoqnPwYxFKyhlDUg
MQ0yHwkI3SYHjaK8uDiKW1CYp/1WaUQf2ia7bxFm/Ql/QUOi6x5nvOe40WBI7CVi
nHuFu/IbOOEmP2t+yFvf1I+ejT3nxKiZ6f6JEfShO6mR6kpMfeEDnTXoAlZHfwX2
Vtg8RbmtyAuiGK7+xLMqEn7b3ObfbfKa01V2vfY+27QYZx7iHnHaOUpl4NdqtJ0f
Pup5o6B1P/yNvMbX+WpDKbsQXOaBRX2XU9az23/tsvH6YfS0Wbyka3azjeii7GJL
6pV0jZvB5JJO3HqGDpFgjaox4aVnC7eMLs3ruUupTM4Z6oxN5+3C82jZMwnuQIHT
iJU0M/WNLxi9ydqw+nTKcvIcEpp+iBjpvlsORYFGDWfzy/OqXFEaHoahuDz25B8p
+qRUcDXcs/PxhamrBeZVH0xy8JRMUBz2Wr9OD6llDFMkbMudQXRXagsIYUH1UmFJ
eYdfh9Rwr6bwGRr8gy/ykZVYm4rTlzYlv5RFKt+30jjti2kS1uVPlBwK1+ynGMyj
wFjYx4UkXqkS2BaIcRl3Fs0CkbGWppKqeRzoVsdBxuCVWrktLtDqfLRT4E93sHLY
ONsJTu4QFNWjDwj9QIPeK0dl5RQWZcznRUxixvQHtIETpZii04X5Uxe8dvW+2oeb
0f7GxSOPuhsSU+m19f4u+DsIBgrSqPyRNtQMB9FPcmUvn0/E+ATzvF4kRdrGA8x/
WUSVcCVveKIPrLb488DHDU2bHiPXI4kHIJtghVNC/b1bIpsI+DVPgFCfAjLTV3D0
mwOh1LeZon9RnbRq7dfgYwMl0wA9JZlLck7DcmVsuGmOmU33dt7XKmt9TRDDAS3X
Gj2eY/yY53oh8o8CoFJYoCdm80xwHvvrNV4VW0yCIWOul3gJi8eREyAV7fegZ/XY
HPv8MT8ddvmrUqtT7uhNwQ5jyubo8uBwU4x8OatoWDOfwmEdppeBFtLD9vraVG32
IhpbJRGEkbUvIITlvXv/ZUwkp6CEToA3wL+KUdShPmNZYrqsTwf2Dmi7Z8uPwpr0
7NMO5wv1s1EBSI/dzgN2joFISbP0j/cMU+m80rPZMEuecplh6J6TNEA+4FLyT5Zn
6lwi2EhC1t640ij0ySvuqdO0JelxPM2uYK8NOp6J+9LEEuN9dHPRiOZ7FMjyfYNQ
1NJ9hsnNlLmRpc0igOg1j2pwSpm4GA446k1mfqO8xq2UFSY5+bZlIwyYqHrkJybi
tdVo1vLRU75j52X5IleQfPb5QDB6PXF7Ap4pwDY2Sh1z5jZbi72nOkplOq12KPRG
R9J06r8nnY9QPdslNUfxnxpOZutxiJXez3gwTU3n2aNKD8HUjHbjNvj3zU4rPnk1
wpQBzq2hKVl/I+GGV3TdzakJykp+VRHTxc5WKnGoCVJoQpvqbMg8jQH0VNlpcwfQ
ikGenEYC6nviyRjAu4S8UdnMRcRpRp0nt3JMhEB2DkI7/5RSDXdP9osJ07dNBeDm
A+WkxYdGR6jidMExU7fre8qiY36Db+fiW0GIWH/gJSnVVUge9YvSrBVnkDM8Y8+W
wrMm6NkZy4BGxHS3jlTeiRlrw9asCbyO+ymSPsUt6ZDV9Zl3zd3cWLU0lgi3wkE0
XRHGDnjPG/PzconoCxsfvNztd2pbXSzx4xgvQ6fayB2XEY6XA6XrcdsihZZ/i/T8
cAXsE3h/hCbQZ9Chysm0i2P7Oe/sos1lc7D1tlvqEciKksCt8zMEOnMeuXzQvHxA
LgfGJbfD4SREwFdO1bQEu7TJDOa9uyBVsyEPm3VxVkvwbgle1O1YMtuMuB14sSf0
hg2I4vgu3FKvtvyCq+McM+PtD8md/1FmLNPbgEwt1eYO/7zAUO7ZjK3MucApgHzg
30z2yswmtf/U3dSohQ4FB/B3rN+3nLEXLEhnvyuEdiAqY1WYa7aiMgjT3YQf4knm
/7X0A+4FnsWZZ3cT7U88YRuuv7qpcmL3Qd1HzrKq9TbPtKaXvch3Erf487szASo1
V/qhrJBSMTWNJpE3yo5jPrTddeWRjQTx5TNayOJSvl4lDrqrdQSbOqznNW4E4o4C
LMoIHse6LfScNYC7QQhju10NMU3u5pVeVhl7355Q3gNGow8f+oNN3Ok+byj9TI3x
mfqRQb169/8R6w+2UbjnWBwtUxYJ2xClGHIG0Vw6lGEWeVQiB/YGkM9exgptavDv
I8jwivP2pBBxrTSxhKJo3qbTdFfq7Zdcr/s3Eh8QitRjvvH+ybH7hW3cbBnxRIdn
fw5ToOsjopby9RHAvBSIu8XAo/M5ZcZWa7G+FhmDUwVaXv7XfUjXxRZbD1+ZMFsq
vTFIhJIQxK8muYzgjEOWpfOpLcmjibzsnl8iImLFAbWDfTBhGrQDV5TCE6VfHVk0
A5Wc/+Klx+i9nQqEDHRCMyCUkYFqMSoztT1VVeDVQOLjVfFA2SflGdB5JI3qQoM5
3cofGfpOtxM7/EQvhN4AE7/fqN/bet6vRwPIhbhc2HPRtoWyABVFPBX+jDrU5tzu
726SwcRE5yB1B/GxlDvD6QNshFP1G/sZlnQJn51QwdAgYb4RGXkxKUYhW3Bl0hBM
4K0WqfzIX4Am88yDzXRqWFElIlnA9dmGNteiCxzUu7jN98Z5ZzShe3xe3nUyP+D4
mPfcp+3oX2C85foHfFnsHATGzQ0CpJJdOmwTwZSEKBQwgPm8UnWmgU0OIH221gLl
aFoWvQ5GaMlIg1YE5etg31HqoJC6sgjYMJomakP5srAqmaxCa28dXgyK31Qq7+4W
yCpqYTBgL9gGj0v8rRIpe01SEi+RTFdOErxNXsVzx7Hfc/vTI0EcGGp0iAtkq9wU
ReatXKQVKCIXV40b56rvqrBoks8pjV5lmXrcvP/vrDzWS6vOJKu7Mrbt6IcVG3XN
3TeyWeALJF7IpnzBij66fl0iMK03yv3+P/jFbdHaUkruak1LQtlIywXg8u/Sy6pn
SwiAA2dwgifYZV98cASEQEOMT65GQK8/yin3WrDdZDOkr+ADf+97hSyKtd74MFGU
/4ASxdJbbM0JggwAJ5pxEoLR73BRkDD4Xi5rrK3bKVqhpmoF/VkUjzt2d9t5A9l/
7dQsoV8lcN8MaF9hYMm42U7cdaWDPDXsMMYb8bARRp1xpDnKUX01pQwUavVpDay+
4j96c40GWxKV9zulQlj2JGwHS8DVPCxibRL65SyP4uU/eLF5WSinuN5cM0Ps9iVQ
FqmwIRKICzGLhMswNW7tsdsbI+AkrJbZZSYbjwQLPOVSsnqd0PsSdkcgEZqLGpfs
7+Sj4VrRnt23hWq2BfUAxEfISnOKl6BXiy0/cQy/pHaGjmqUzVSnJC0brRTTk/1W
Z92UV4QifhmNCrA+1/hnkDqbTh9vi8pyY6TIu8I+G7yxlgHaFKeY2w17kT2NBQm1
4eOd5XZwlU6hYN4EJXTVm7+IiAi/+KHhpNM0RLdMjJ4mDPBbpUfMLkFXhvBeU0ii
LPNzSnrGYx7S3538DqHTcRGBWwqMEn3jMKRy1ifyiWb8YeBygfyZQkXn4963CS/M
LMrggM5urOtKrIRUnDfq34M67IuIC9uudTogaESEqp/Uu2euFdPf3V0Up/3XdtWg
m4Ny75esQsPFh3G2gWcLlXCnsP7R9ZjEgCQNKO6/A+botlMpwMw3qo7dm0SL6yol
DRCzG8VsARDg/Fyq5ddPu8Gsh9ILkIyR5hmEWhmRNcJ3hdsPMs79sduM497LglQ8
L++TO2kxZbzP6Q6jktlUoKdtTsnBRlDzRZ/qj//scgXtZcuumz5toN5yJggHvYy1
YZA5UIo1gs9IJrbd8OSILUBVHUTbbjWlCm47hHGWMcwO3Pt7U98PfAk79bgakS9z
HL3Tp9pB8whQbZabD5vo+76RRmPkBjQjrcr3odsKbUEOrssIkk8I13/l3/aTPoXx
dovtmg4+kx+ku37ETdkDZsGbYcIOk4EYDm68FQGSquwBoMS4G5d0ySrKj/nI7rL5
dy5ePrDBpWpSwpr+6XO9IOMAYm6Cs3WhdQTpLqnVFCO5IGmfTLJrKa6UyQMLyawp
3R9CLa01pDNk/nuPGrt3Fw9UuM2QRz5ED33mDLZKCOwr1XnuGTHZrmtqIUqcyVvx
vNPA2Jmd/FCJavE05uAbjmsOTLt0rTmfI16vZYk/3KUnugusKThAqFSxTZL51ir4
FQiMJiqAKDfkwvUFHlpzUX1kvIL5Jcaq68+mgE5JDDA6Hvktjrg2augQt0VBl8xt
3ai/HqkkfgWBAFbkiwFnG77knl9ojalvguDhEavWo0YHGDXO+OKvnxzXaqS3pcQO
0qZ9cDJE39ldgYvk4uynRU9s+5FDNN6UGcrS4qsTGeoGDrD/1aS88BgQh1ZUJb8r
EmI8AYyskbd89tXIaFCW0+QOctguygCkw67n/HvqIiKHSP0Qt1niC81GCLFyyaKO
gc1BpImPbBWCOu8dRy/FZhewwTFn+xfzGyTWccQLszvk+Zeu0h2SvP4y4RIG2WmH
wDB8lQN//flNabNSt/74yCyy6uFK36Y2f0PsPRon48mQKT6GRSiNctg78ccq5Cr7
CLpfKPsuhHKLb8WF9HgCxKINJ0PKVqWuLpjcwz+HXPSk15wplTAithypmnnyNdcn
lAds8V5SR1pfPLLoZTHk5l17Uzx3u4IGcYCAupeO57PgldyzIMmDNRmUZIoq9k9Q
TRAStplxTPusQouqMsKd7BSvyncyJ/HRmq14NFAGqK5h6kWEI9IEfzmOBd0xbusM
mtuyLEDIFFtAw48+Q46FEyhgqPWhZpsGdihqGN00efotur62keVUjC5M6XpgwvFT
hpDlIouJj4rQc4nfRjeGzJSLuM+ius7l6WE/VT2He+C7b6u6SQeNPpo75mJqxpvH
uh/cvJxZxT8uobUzQeEKHnuP2dzp0MoGK8Lg4PucKRDBwefEFLLDADqsMH7lI/7V
+ndGO1vSKdCMAYqJDyp/MRKuK0t/1qhnIIr3jxxm42c/+nn0CfDRixdHrX8LGyBS
W1wVjbUgvC9O2xwZG7SzcKgM1CMl3o3swaH1y+oE0IEAh0v9B+oKvEIBgBB2eMZQ
ADdKCQjUrQzLXQp/GfDJPdbSS5P1o8k260+JBgW9SOtWoCQ5wvuV8n/MM1dC/sxH
Zlpoy5bpn5rN2RNp7FJ4h4xSDTYB96YpSmOTDUWVe8U7f2pf9Cyh1TLbtSDyktta
mZnQuR1ykH56AoztU8t7m/1Ik9OZLcC6QwZasM4wjfpYZfM9Lce5vavfwi6xqguc
R4R6TJQuWPC9a4SXDGLcAwfQ50gyvNSiDJatQfh7mzrbzcARVc97YT6IhTeelIuS
WH7QrhiPtw8b3JsOZMk7l/uEoss2IMzR8hDlylFWoSRU4WgoEKcyBpn8K2rHCg9U
QF1OYVf1Bws//zmM+vL1P8JCysfvQJjVtAMWf1kssncnDNMcyCeIb6HzeZtE7PEc
rJlKICKgTNAtlv7sfSNT+xbvfEjkC2pdI+0Vpia/kQ2Ut0/LaxyGCwTJgwPUMoAF
XBfZcU9OIpkwTx//qHpWIIPTBZaKsDseGPxDAxgVnKoQNx7XNSY4QRcOWOljyqj4
f4Kut/j3QWktStsa+DE49Ae+2s9vf4MO3s8qrDrajXUqD/+vbBLH/BJLmntKAeD3
D/re+LMLkQwwPHkbUuNJir2rq4kDVmGN7xnyuK1wLjJjw/FeSsmq/g+tBXbk+TF1
ZPOttmGKwkWoh2gfrhS4RwNJJtlyt/yNwaPSlCt4/vjHJ6qLCQ61lzWX/Q7XEHtv
uNigp4YjRs/WymNcPr6ELvWgg79V60QbxFgW5Yevb9DpbQ3V1OqrhNpCst/9GOEv
Z7p/OBke01dvm0YGXVYgwi/KDK5Qg1yhxNEg4sXIjNtTNuwwdArW5skrYkxHOVNP
PwaqGQKkxSaWAy/CFb075Urg7ZSDwQ5L5yAEpSXWDURRK3HbjrNBJqaShJYrCWp1
cTAUjky8I0tQ3lE18ywXP0CWYj8ArCF/0NfkKmNkmK4R9WEIwCwsfqUCvq+ltJkO
91HwMiKKhAaf+ULIGJfWgBimMFJ/4W9/h3wwOpey5/xPIW8Qpn5TeaI3MW5JPscx
3zCWAi8AvTKzeseYDCoVkeLjd5i2J71fOJIw+4H0ckepvZEzq0GKJuEVoiPLjvOU
IsYGLOqkHlLuH7vD5MLwUJVKQ9KotOeSG4kMrANfMQHOyJMnIEE8NokGmP2WCZDi
cDjwGke13fXALAIBx4uCNVUEF2B2uAtwmvB8VvjVzGtUiQzHnl+GjZfVQOp17Kpy
9EXfdFtXFfPq80o36lN3tn1D7ut5Qy0OSwji8GuIQq9q1cFMWoYxEg4Zk8r434dC
yjRR6d7FeoSnQZv0zCm/S3SiaEn7V4fIAe7r4ErXsB8hTZCXtBrR8xoy+XANFHw3
pnN2Y/2UvauR7XdRqwj1nw1vx+ZBBmcD8VDfLMinpaL1FRqD9R71asy4UtWj2t3L
tCnz3+e3tQ7ZET8TDAY4nQsodheopCgjgL3RnYvslTZr1MwBwRYr3PUrFCVzfcYc
6vIW2TbEDoAZ0qU+pWRQb5u4VpKzp5GKL5UXMky5pc/XLGzPhDunBL7d6z0ePTg8
HsweQHrkHMI/55PHAhrb7QP2pSNdcDa3u8D5Skody7ejvqHHlSTDLHh7yu/bFNSE
EDYOxco3+BwS0rswIgDVoOwcApC+bDuI5CACAtPBY2LdmoxfOXJkIa24hrTBC9/w
+KU6JSsOqJCP132/oETzDgDP+9GncLDaKRgFcCLNMyb5yVWqbRqbpHAseiL7sT3s
eRKK9cgFMlSx0w0KjmOR18Zo7QR9czO7w9scw2zMdSggFg5z8XPlQhvlJtYqsvY5
bqFQFboJOWqadjnQ0khWzMiDa21Rgxh5Nxlkq3Z8cAQxjK3o/EwXHrkq4RAiv/0+
ZmQbgadf4DjkPY0mqy/WJhZ16TzQPr/sop1TEsb6SGcut73k0PtrlfgsrQYHjmG+
UEBNxSs0SmzoWl4GDlzRYh2hK6LOS6sVYYh/OAEk1b2sQIewplvwWZTjpGbKk3nO
i+8VbiuazVpY1azyEN2Q5k/ZdHWwMSrU0dZtRLfUqDh6fyZ6qJvI4x+Fal96XmwT
W0f0M70VKsXYuiyus2aQIraotOt4wk59MVlnoCztVbwGPmRiGKALeY2qnBd8KvPs
nLMida26gBPN2/FI/J2rr+JwrUEjjaqlhAtvk1jfxRGtoQZ17vWjNyguZc9aOXwM
b8FitIPQRqzxlp7B2eFr2wbcNWAED2n2Ra9AJra7sJm1vBShjBQC9r4kS2cQpXN3
p4kCdxEwY1ekiZbc2nCXydeXUW1RSXwN7ZUPPYXTheEByQrNikZSuM7DPZ4qgpBh
jHz8oTHMp9obFGYKfCKUtTJAZmWqljK6KFT4ODkHWrTdOZmxX5gwZQFErYi43wMz
BhIgfBRQmVg6yqC/FN6gKAYop/HolOeNtlpDOB44LahWgGJ3stAO3hXCsesg2L/B
oDR4HZJtHeTpzyh+JLhc4pYmpUY99ZhPjMEX+GbPfNFcbKyA+YBtlP/OhxFoQWoR
33+5QpQC09pdj+rMXkXUpWgLsnSRsb1ssTyUcLDhO8aA2hsc+4B7WCVOO/jJh0/3
ePYoFZ7dX4lcxDSKZlOFRZMM/kYdxuPcxKzuDJstOl2W09a5EXS9TAhXqpU6BEcE
YRqNUblSmZx94VA82SdANi8Z8yF3RT+3z4lBRWX8R9uPbhTJpIo8JzQtqZZUbZ7B
4aEF2OmioIKqQMADusJ1Ynrp7n3uZKuTVVFNhycGfTxIfzbnPRTTyhhI47+go6lC
x3s7xydTHCtcS4U4rp9p+aX6SPj+Qh07AJpFG+YhPyka68HDeNlhwbxx0J2kO1kF
F+AHeExduXPzjnzA1GP23fcvJViUewrnpBUxggpNKAX3hJDeHPP9d6QPD186Qck/
CwtAbEEf0ksDM5XZRLPQR0fxjZeUg1+UMwEdAMN5dLB9JUdAiKGA1Ol0aQzRkT6G
Rr6VVhBhsLkgp84rxHbmHDG3jBfO6xRKdffSShsT2wDPAHp1Pc4OJQoZlISMvtw4
IoBBuU10mFmcf7Ldp2Fwkig3s1NGjU1cUUJsOReizWwPnIkTNgEljxcgS4Sbac3V
hihm591lTI0V3Qao/LmBDQWhb1t4OopG5LZVg7KTEEYBvrz2Hl6+PDVstfxyUG2c
q+JBVGxY502BCtcKMLau4yKPvukVFgpsUSf916siUabqrzrqmMO/4JiucpbcpYlI
RXUb3bqcIJTnbFJh+5aMHtZBsTKem8fehFXWWHoqVg/G/dM7IXvXk+y+LlzYgWhH
/FlX2bfrpiSV1j2LNi2F9/EQeMiPuWSR+VHjMenLeGks4z777+906YdU9NSOBxyu
oTXzThWSlHuoifw6Ih7CQ/VR7JTmBKoaW4VxcFRdMxYZPadFlQUWRCa3fvdkL7zW
wY6hl5rsqAYTTKv/MSolH0UVygsb6YzI6hYzTUsMYk8StBKMr8dYNbURRB4wPpLc
hyrhenWuCSHvUU+mkeTdaUrVebUTR862GDnByZ/gtFZdJZDve2wjTue3k4ItGT98
fMvJTG/M0lTgXFqIN+Bm+wvpVwiBFzHbMK5OANyyV+fYVqu4IfT8l2Xowbv06e7m
hi2zUsdrU56t/5pGP4Dc9m1JVvA/TYbMqTNnSY6AP6D/BqRDdUS9d+RnpLa8cDsz
jUSQ0nL7IRXtT7i70JUgfY2gau7fMxfWx5ET95j5PXmxBwzxhGWm3Y02pERbE+YR
4M75xOQiXcv8OelS9LR+tKw2aKer7vCkBr76eI8PUkDZ8mrewiiEhii4labbDyVw
sj8e3BS1xGNoFmjdy2w18fDYWgP9BJS5PiamtglDKb8xJWe5OdDB1K2oFU9izO+q
CA60unmpkHEtgeSpzGgAAtEqEWnvPBpXfqiEM1YSbANtZ88zkpuhd6e5SlNwYinO
R/bKVBP2W8ElDxTbQSFTTRof4WkgtRdgR977YVa5RJxU5LEZtgV31+qJHRDRXoDp
cGtA3/FYxbJC/Rb9etfxr7CSs9YiW+xSsg89iro740PIpRDLfElpt52hd5piHpg+
+fLh9EOs/Nf347LmCZLN4Jq5VFrQj4wFAX/qrs60pv9jrXSQqFAObbpbIxoy73aR
kyBZDk0uhFS9cc7dS2lY2rx4toGYmHZ4XGCfZBilXdPukgxVfXg5YjWHBQAHPhQT
tersSY9R92u3caDOhoLSas5ltX14NnZIPHizVs2QYY8JcNqzuSIxvMJxGHPnQGds
/kKztivdYWF8xvqW1yCfuI0bpjAbQuNGKn/LWbon1LpH+0nUhGn07axwRj4r71JK
nmivwKQkP5XWie/l+yUv00kFCMbQo+xAfiLidakDR1fwiLP9Q6NkFQLHYSsnGP1i
/1o2n67el59zyMqk3org/YEXDOfFSumyXLIFbSEFB9wZYDHOP6NitCBY76PSRYKN
rBb+91stN2fhXIKnM08OsFmy1n0mc+KVv9B3ekhLQ8BwjYrdeb/kGoUucxIjSYY/
zii4YA/PwAQgpiGA7TAAdopkyR7603GoCsGuvOeKoGH6kkfjBbceA3LfiwMRPfvq
gCqfghNAPoiISK5B81ZyGdciY4C7vzZOn2FPiWBw0b2tY/O7xrpfltqR4BghRdCM
kEo0Sg1GSf/dx7g4g7DvwlCXW8w1dC101AfHCBq4sXCjDOQFgcZFz0wBHEAAuJV7
lMepQk092BKQVAh0d8yIqwMd3FIOgk06a/tvu4TDVJmm+eFnre/oBFfuc7rlSWhS
yXVnaD8ttSRZUiPRnCnlYxsUcpvIV5N2B8TVS1pMqDIiDRrh816UWmoTGcDWT0mi
9fafAOr9jDjVE9ReapEz0eBEOT0PxeH1u8n21KytlcU1PEpzdy4IvgcqJMQAu6QN
te1GzpG2gqI8cQJqS6MUx2Otfr15u9ch+Voe574oUHe+OUksIQn1LRIQxXpCIeOr
cz8eqFdA6sKJ3/ZY1sTuWegFZTMxLX46qCZrQEDnunDovs4B+MKQvpCWp1FpNdc4
YXgkAAfuQCZzLc60G99hcfAGNzsJV2s4V5SN2ampqfA/rnuKlvhsgq5u5T5ZFRMz
zUdebw0OSVay5IJ0XIAIq0FTKqZpTPGtJYEU2zIsOIyDIQ02NUx46DCUbcAhlgSy
XgGaGGx07yh/0tIt9Z/3T05CfNU8QMemWp5fIoaLR1iNZCaeH1Hri1ouMeEV0uTJ
g0rDStnLW74J6gk28G4gOPf3jo8vxn0KtZl8/QcpNP5I3AfwPHOrRUFfjozYam2W
/i7S17PEEkuFJdCtQEelgaIa6JklTxMkpfa1jV0tG0IVwsYcKuAABwAFRyJBJAye
XZpz9yqCY/dMlHMiQFRwSf7Yecy4JjiN1CFqbczcqVUHlDMfhAtWqSId63965H8m
T9bciO26IEa3LQe6GFdxx48egVDMIRBb4Wqu4NJUqUDUhmoWB/NIGoRcet/KxA4V
Wav7BGzvTHXw8t6sUOYikCXNOQME5n6bBZnapSIw918viyR7BT76G8JK77dQJRVq
CGY3PUq4UPl7x4zQxpd5ZcmsIfGaBBTLrjWPXVYQCZB3LQOjq5CaWiEKkgt528U8
GEmRe51H56qCMnPHfDw7NdmMZeqshIezk/YDuEmVYMHIMJ8AsMTDhmdr3d2W/cNB
uvM/ot1k9kdukasChKMDKkfYH3rSGI6gUNA0xsPUSP+fd0JQeGdAIjtwjqgtkU44
VWAVIgYnxzUbPYszBmJ7X+rfknCVYVW22ouisvsIjYJ6G0Lc5hIBJ/s5cDZfe1Ni
b1ICMQureHBzqR8L9iiEaVLx00oEjJX+mMxdvQJncTIv0cDKPSJdtlC3kWiT0mT2
rLb1+VesG7UuMS6KTcaz0faUIJste1xxk8GH2KOf57tLcfr8RfTkI9/OQk/YJGqA
OPhp0DzF0qGmzr7qFILx/TgS8QB8Vbn+F77uNWpheiDK3kDf8uDzNE07Rr1k2ML0
si64uy1XQiv+Co4wcC0jSuF2pzAbgQufiO8Wa6KpkDnFqhYzAyeI8kasjVes0I9S
Sw2iDIB+TJuWNppfc15fZ7oTLENAaK8dSK2tnIfJdXRci01LkMaZdTtg62iEZ8uf
mVqwRo6794Gvn2/CFQOaw+YK7BNgRK88wTzFAHBSeCZ0b4v+QC6CPsOTVyTz/iDO
YVcz1S/oqDsBEjVYzB/6A0PchIsA6g2IWVSB0BU8W0pDdohDRP7mKZIL5g+2iThA
ypB4fAQ8Bw730KVwbYpAM9e+VgPsnr0RS0RWCCEwIzTfu1/OoW5q7D2hazcyyVkn
0t2Jo9qUPqoIzRuYwkJ0esthIWNtnvyUNVgMwR2FRUIxscx0/ZTLIp7vkSTa/9TH
naeOJr1xNRCVqvQiiRuLUL13JdB/JJwPmQkgv9xj2iKTGyBMEsI18eOC9B77R7Ie
NAGcJVYamGIF+GyVrwoM3nSPIEh+PpMIzeTuSnEU+bjhapFVKG0QJ/Oqe3UCVnW8
MXIBPOPGqPt5pqANgh6eoBRzpvXvZ+3rTqZw7PtkDnY7i5nz3JJ3DskH0foye3TN
iBUa/KKpSUyVY4stkEm/+VfFMdV5fXYSgTINeZ8VzPvxkO7SNltSKu34I1bl2+DK
O3j6rfA+QLhRyjUzayzbT+QvvAlGRRgWivCNTPfL9cb4VIaN/gI4sA4/Vr3gcYj8
t/CBswba5HEUeRJN3wDTcBFL7Zk6Cy/5I2MvWtdvKkRWc0ZREWwSbe6y6PHlF4+b
FAEJNSn0XSNL0tyLonJGHiT9NC9SwP3suKXHqDKrRELqgdCiUWiPmD+hPuFnTjz6
xN1g9cwpg+art4zu6+kJgqlmNdzJ2914+tUKWjsZcoLbyfLGDvKtqw56HXOLLgxw
o950rsyIR6Hr5smBDPxjvgSLdC+lIyPYjU/V5cZ5Fopu+Z/1aaohfXXdJHAmursd
uWdmyJkm1997zVqWMMGS6Y0DxxFYnrzndce6ItLi/U9rH6rWPc+R1VRU166gceW9
bfCiitgFZGamR14DL3VABZ+XMVYKQtEbxuW5+xsms7+Ly4DeCYEbDYIcveeaSmn3
ygcLgasCajvLijgx9VCjdPlC3UqA3Hu85LlpuBqm+DxKD+piJlN3v7akNM37/iBL
3DAx9KJprzChgqMhtLPRqhLzVCuhR3yWwelb415PE8fB+44bpCnY9pVvNr5eH9Rj
pIt5YKQGPxxCNdldK4XKpgaQB0IAhjW6X0t5t5MLsNjeWe/4oYF13EHCNg+xx8rE
KG2kkYykqLBkqteGu4zerms3IxFPrpmCuM8iq0aZRo5L72urTGOVj70D8VhtL5Qo
D+u6vAY60Byp/Ve9IIH1K4gvnxhiE1IEOSuOeh2KgjL/JGEfSxyQZV8/bHI99jhQ
q3WjlfAjXWyQoJqKCb+ReSl2NjzYVSSrJDGK8X6McY3ziFgOND+b09jG0yMN52U8
43zhhIdbB2G01cMDI1Deug9IizQ4SzPS/pyzyW1/2XZ6GydHQdS4pyfP6ffwiGWZ
QqWfH6p6jG+Wreg0yapZHCFQli1ZbIefR/iIyDa8dAxeP7dRZy3sBd5VhOcnsBwA
eDL3IYhGIWLjwncCmxx2h8JFKpeCkTpfz3tjCtYcLKBIkd5mfyHIPyqzqMvzcZnR
J2iVB29joi4DecNVEtGPbwXT7qVN1OrJLeqXmgI9nwlq369rFv7ptg+0oopuls0R
GlTvX2+1kSGvud5/Pqs/QzVRiH1pgGmjmMT5QCsk9CaXYAB9E3gzEquguhYo0yyV
2nw31hRHeudJe/q2hW/gjvQMsTlhWeyU+d45Ndvfq5Gm9JJn76XxIyHMX4FpU0u9
6P5IXEjSB55j8A8nEYnh3vl2RFaYl8xVLG34xY3/0r3q9yBKqtAzp/6DqvaJTdYF
AuWemLsAiYHsmpl1M9AYZ//59ZX2N8uJk7FwDkvvtKJcwZitFFrfj82CjSKztHMX
15que4X/FthNCmgL1CQujx9cDVzUbift7Gy+yl8/ZZthUGni7iykV8+XyjSQaIxN
GEYNmKlQYfJZ6a6jNyew5vIcKJaP1QYyfLqMvzSTgJSwdPmQxpRiMeayGzzFvMx4
Ox0oQe6kyuOG6J4lc6Y2K41nMP/8l1TXJPPTOG/g3VseIPejTmzDex8XCBXvUHF2
DdrIT90DxV0CbhnM9Eil8x0kbuWKyrnLiSzKXxzYWlOvjtA26+Q96Ge4P04A/MJL
MXdIwoJGJSZuERE56+qedvVnsm0ImM481W7zFpSuNEksrCx56j2CtGHQo3YFWev5
mOW2zzD9KEe+mh6j9kYCzJ0y0tdP/Dr/gk+UJf6VtDnwBgHWjZPD79MZYnZ9ahyE
gLqr+9L4sPnZcbCYCCTzS7TrJf+E/XNMUbUkH3c2rNd2cO2+FRTSorFs0TzXvQUR
Ft3ykklQNeRSN7Q3vexEkptKFS/AAjZK1MJQsg5Q655M9StiO/MyY79gNYi0I4YF
yNTYFOK0o4hku1X+kXSzze7M3eeFUCMjFH9w2/VQDDeIHZUIZoj8C3RIi4aAvYXl
ZAm2+KL2Whx5gr/jIsKIB6kg/b7CTBP8Jv71jDTDwxWyxP04Q15WkfQFbv0uoIGk
VR3zN8bMvaLwl6Er+UYFKnwNq0y3Ro7azrSB95mLF2TQnJt1SxOtilulSElfg2RI
sRYyQjLeqTeOCXYPg5N6bsa8E3kKEXXu2pFk7TW3hcU0wr50jpDHmfd40go7/lG2
vO5UH2dlwOMDE5StGJQePxJxN6Itxo7LYQ+VpzTfqdF4haEBM7XeCrm1pjhTrZ2k
ByClmT8bCrAJ30bpH/3+GDeUaeATtyuAjoxrF4kXcjabZI6E/sStxdhGYyJGcEU6
5cftG+C9afANzK/Frin5KA97teyrWPyzUA/WUW5BfB3JCDQ17CJnKMCyXGK90Iiv
Ck+qkjCSlIpC7riuaMF1WjIgpOJL9bIFI7JNzsxmm9Ke81gvZWZc0vYsR/EkDCjR
6fyXJyxrEmq78H5WdAAWIerv7vqvjk7+sX/JxwRWmTVPAI/6fa5M2sI1AyT2F/0c
dHr5pqnLTZQMr7nQNcgsBV9amJF8EAVrdfHlWRrbTmJbeKpJU9+UKHm77fC9GqBt
lCUkizY4vrCOOBsG3MPVj3FnWdVIOvLVHP9xsEa8P1+1oQ9ixx/Dou+AD33tI82q
M1AuikOStxN/RcDJ+oAUFwBmEgbANUbAv3sStOxRDufZKJ9NzJSWCc9aOr7wfCXP
mwEKPPkZHAuYAADb9lcERbYsMSF3MZVdjuq/TFGTKi/06cal9sIvdA7ZJzah5yF/
nYNEUvyuoCQQSW2WFuSstlpLmigxyWPeRbFWzxp/Nvt7PIrz4MnNpPHwK62oJlom
QyOt/qM2Kz7LPwsvTyylZzD5GgQUfhZXReSTS0s+UNsBtkP0gJHwkXBRy5kWy9Us
rXVOzjFiqL33/ibgPBu4nFfsJcwxkNbutVc24w+UhT7VVfh8WtDVrkP9ti6E9lyr
4ID7ALSNQqThNxoVPmey95AjVoTj+GvAymZAdQ7MWeVI2LEOF6K8lpIlxJs1zk6r
jxMNXVJpTws/ElmFBK5lukYOWZ4AZMrrcklYr5oDc952YIa5sGrP9UmT50fPMADI
n4TtiAzthwAXEtaKAqcC/lmHGNPyvW0WpKBvOLhH7HT0Na0JjwQlG3XQ3T7I36mQ
AXsbvU2LjDVv2ad1pfWmdfc+sLgkRvn1Y3cztClJdPcurusNwJUHpD4L8SZSnSwa
O3F5noBi6a9OLUHlwe2P22FaW+ic+BlpBK04ptuTSjXws9RkSeoPuNza5qONlyo7
xyGWUUEGiHktaGJMrWtePj16OEPhQwttr6ZuI+Pf274hvPB346dqT1cRuD7dZ/p1
Nqa1V7av+JJlAy77SrqzryVTki0G8Q+B/Fc1jN5lEMCuyFbiTdaVFO2uWuTLwzqk
Jwm9UZtvyc56C0ytH6EO4tS+O0FBpNuVqNt389MPybST9YEgm9Nle3GfbPmue2PI
j/+AwI7e/Wf3pGYhmhqzwhpXlZCF8nR6/q2ddkI4Fm5m/0PVg77xv42X8luuBM81
4sWSWlYnuSG/84MYDMsphRbVLGn4jSRknhHU7WfY6mkIT6Sw226LRzDquu0pM/nu
5/XDiKqArnItEnnGZxDz/5jI2sYYL5eX64rFGlhItdKW4ZRgpWkn/zT2OdMIH1Tk
OW7MIamqOhkqdiUmn6ynW7d+5DzQ/nu10mvonpYPMe5OTLGiHGIao4h1gWtBMMA8
gBR9e3qLcO+8E4mym4Rh6+41fRkfwVABsIh+S9fVI+xjpcADXPhTIBoAa+o5ovOa
UTqrOOOiIyRTo2MdlRyYcYaxt17OhrVp1lR/qFrTj0XXog+Sik3kUvSFBxYB2QW+
wMfdjOZiUAl4uavc3MCpY8fc6bjYsYegAhL/wxEaTKjzFsdYgVhiQn2jjbMlOcCl
0dgtSdSyOMyCpEVwTWO2Jpa9hjWGzqAKUwjVIo8oZMREKhxf8feU3ttGDn76woIk
WDlpQwyGNqB4Ptem166eeR4SH1qT25tH6lNLjo5LipZf9DMMbOuW1CML1ydtKn+D
Y5RbFB9UfqSccSLSjIeVdWmUVgbg2dtc0Yk/ANnh8RD/bztwwaj5f8p+svfNxCwH
T7OJ0z7hywyEuESyD0rXw1oGPDl6vbbgF0rvWemQd1n0jNe8sBaDR63g2hq39hx6
hyxfKpCzAZ6zl97MfU2GJmk8T+B0jKVf+LlXNLSU2XVr26g6uBSfZgftnLdRFsJz
i3zn8Rx8KEtIF5mZ1ouTn7hiEPvxPECbEwAole+60QtzSqsUS7gIHKH0W64jlRWv
IK2rvQEdGsV8dpv0VWwI2n9nCx/4oA3V4EyLqoOPBBzUtXlVdRwSCzA9suu8jJAz
hACt2zisyeXtkK4HF5B0jmzhTOsrt4O61CET3NKmF0lps7QUPysJKymviCTEWjXj
njAabmxBL7fEu6M9pxuuMF5omUgO4fjv/Ca66XKGCDwj1xGT40+ogZsTSqKNVEAl
k1TX+h7DtJUmaJIwZajCMyPt/9IRFW7sfzDWGxdIzUt6EZHOwED3HC4juWYYpeKF
JN3JSKwCJIrKGgNPMyX3IE1o758rRdYFzxN4uDCO9qeXUP7jCRIw1H19VVU6dh2O
xXVypHU1+SJSKwU16poL13XIdOk7rqKKllb1B6UB/UuQY/ucgvkvPp8A7wHLzpDd
NqrAgl57JyhIPofJ8GPxOyllr3d14U3lH4z8/zdqCGrUlovDQgNFKdUen/TSiL+7
bUIMPzyrWZoh7SK2vD8pZ80Xx5V01CtfL9gVXx7ilSqtH4xc8HQLktUNCLdj2MhA
YC84O2Y43iawWQwyKU7EWyNaM12v47ItR2jzHuGBYQbhf/lDnrSWyz3AivqV5ZjY
7jIqyMgTAQEB0MJHE46IcqM7lJQQVxEVV8e/buJNVTM7p8aeMFlf41c72Uad0uCL
ApOwI9q9hB6hynINvnowH/WCltM5v/UkJSjI2XwZSlM/Q3GV00IpEwNv24JuzTHD
cPoGYEQ11L2smWqdCH4J9CUnFMxfuWDUT5nNzg87HM+76wHPAua+/wXRxd8ooEaZ
n9/R/bYi87thNMojVCQO4vzEwsiqCtX/rzT7c6NzCvtBXHNefq2pKTTBGfXap275
vFo1+zBVA/Iy4v5EMOcwEEieOKBvfH79dmcpHc2QRT8Pu3aWAwQRtRdqFQQmWDT6
ILgMVx+iVhVbdjTrpB4Ee/wrEPnRV/lFEcHzY/Ha4EKTqaRqUziELMKtn7zU7jZL
ANi+qLzPy6U4wephmzAeqHIqpPdy9uLFNtp/gdgq854CDDdJ0n0hy/3gtJsv2D6Y
FXX1/w5fXaML3KwEIHzLJbFtLkevo2AGfGlHecXxxNOv1c2hIp+OquOsNyefbiqS
HtHvdZTaE4cduipH1YPrl0k9HTIkD/T9k2N4pDjooiQmW6f9jYNOf18/1cho9lAa
r8aP79RufFW8o8ppDJ7edqY/K/vrwjJbcIqYLyVmJSNDCxZWe9Vdpa63aaeE3KDV
X4x0VhIoOqHcDCKZ6+kekXFj7Qt2iBcWgfLJAf9+pLQ3Y5JoI+tELviuhU6CFqx5
6q/rzNfj7x6tJYn8+4obq5FtN1LZfH3IWn0VIzh1DiANasZFl6kcTL3mgFdefsVd
onjEvgMb/Tqn8+X6jqAGtxbO/SralyLKTVTvrJj0FptAiM7AoihpL9/s/WVNeG7y
+Dej2AbKPSRJkjj3Aos/wKkpypAxFxHNmBMoJXAPx0wtI+R0aZ6+xhaYpxgjAEiY
GHt6yJtqcmvAXcW+TMcQhqGiLEutbLLBCJSe6029qa4Ytcil76WLBFM8vw9Tq7zB
jk4aCGCZ8xnojkzJ0fqc2FCdubkeHlFL6ammuND2ygjQY24Na5ABrIbvQDmnfSWJ
RFn3sxyzh15SeXYNlmdzjUKHDrcxqzy8jAqm+nOwdtDuVhx13JqPnd4z4rstMNj/
KilBRMzOSdVTWQv48wJgvta33w0iMun9SpzjXKWxC0I9A36fMgJ5C2QRYj2DgDc3
bW+a81gxfIavBrKM3C3tnDTi7sdkRIPB+qq8JTlNp98Dgog4msXhILGQhi7LZbmV
vxQFLQ4rapyv9EtWVetIYEyyZ1tkuimas0x8g/WLiKLi5vkssZzUGhZ5kEM4hTsT
UU1L6iWbIMRurkB3X6H9/+EEHAbLi7j7b/Te8U389qfVhiWWoh04l4gd3N+UbcOq
yqSMmY86J0vLPZAyZ46U7gkf22FXAUeiGdQRLUtz1tYn7ZmOKymd2O8nbUqDAvWm
Vci7/WHgJz9Qujn3srY6WIlLZXHmse4JPDlxuYj1fMs1JO4Bw/oBQTdWMmJ0Y49v
VGq1MNxB64MbrWvyu6K0Sc/mcwJAboz60ItuYBPr4Q51vzZosQxae+XktX3YWMUj
61Zqm+beW8S/KpnchPCKecQxKVW84fH6Cut58qO4bfrIL35/eeWLd4boI2DG277j
+Ufnx+SiTcELhC+0uCT6UL3tMykjkgz8XN8Q4S1IhXqvAAwrmGbz9DsPzoA1rEn3
3Wuq7S41vXYrWzNqdh5ZeaKFtz6goxWyRCKT64rIUNn0dYi3TePpWsAwhsjzn9qB
/r50555XWloSZBf954eFu3WgtHdyXay5ZxM5TVF28CKbJ/s1yWwjn8GOBodhNmA/
RlGlI+eFBqOaVrjuqto5qqr7ijJaHiegpEh7bB04AnGCXHzFKwSAmcbZ7JNrn+sL
kxU0IH8Y+GQfPxz9P7IZdDUT8ZlskMOIbR3XgPk9JZbndR0jtgMpNnBDiXLneghu
4t28LH/G/KvgMkmnsW6g9sW8/5LEQREljiVuWvyxOh5+gElcRFBTxp2h/eNe4tB2
zVBLvzM6i7QjxqROO4CtRzXhvhT8DOS6k0f975FiVnJnpVwlsxG6cqEm2E8STVsd
+xSzfXOHdd0URdNHDHkZsBBqkRu9EM8gRMwPJi6kM8wsKYAbNldvujmx9OLxDV6Y
C+9+VT01drmWdHaKeawCWiMje9LiuLuDmKnc8CJFn9uzXrUWwHM5SspWGqpHabap
tIBoG4Ot9BmKPXkhUe/VB2jCzzcTPNX263nXP0bEqn0K+JCJ
=dfeW
-----END PGP MESSAGE-----
